; HEADER_BLOCK_START
; generated by OrcaSlicer 1.8.1 on 2024-02-15 at 22:30:25
; total layer number: 240
; HEADER_BLOCK_END

; THUMBNAIL_BLOCK_START

;
; THUMBNAIL_BLOCK_END

; external perimeters extrusion width = 0.55mm
; perimeters extrusion width = 0.55mm
; infill extrusion width = 0.55mm
; solid infill extrusion width = 0.55mm
; top infill extrusion width = 0.55mm
; support material extrusion width = 0.55mm
; first layer extrusion width = 0.55mm

; EXECUTABLE_BLOCK_START
M73 P0 R62
;TYPE:Custom
M191 S24 ;set chamber_temperature and wait for it to be reached
G90 ; use absolute coordinates
M83 ; extruder relative mode
M204 S10000 T1000
M104 S210 ; set extruder temp

;Make current tool active
T0 

M140 S60 ; set bed temp
; G28 ; home all
G1 Y1.0 Z0.2 F1000 ; move print head up
M190 S60 ; wait for bed temp
M109 S210 ; wait for extruder temp
G92 E0.0
; initial load
G1 X205.0 E19 F1000
G1 Y1.6
G1 X5.0 E19 F1000
G92 E0.0
; intro line
M73 P0 R61
G1 Y2.0 Z0.2 F1000
G1 X65.0 E9.0 F1000
G1 X105.0 E12.5 F1000
G92 E0.0
G90
G21
M83 ; use relative distances for extrusion
;
; **Filament Change gcode**
; 
; Save current position to slot #0
G60 S0    
; relative positioning             
G91 
; lift Z by 5mm
G1 Z5 F360    
; absolute positioning  
G90 
; MOVE TO
G1 X-70 Y-5 F6000 
;
; PAUSE -> block -> RESUME on click
; New colour message and bloc
M291 P"Load Filament #808000" S2
;
M291 P"Feeding filament..." R"Loading PLA" T5 ; Display new message
; Feed 10mm of filament at 3000mm/min
G1 E10 F30 
; Feed 3mm of filament at 1000mm/min
M73 P1 R61
G1 E20 F60 
; Wait one second
G4 P1000 
; Retract 0.5mm of filament at 1800mm/min
G1 E-0.5 F1800 
; Wait for moves to complete
M400 
; Hide the message
M292 
;
; PAUSE -> block -> RESUME on click
M291 P"Clear Nozzle" S2
;
; go to 5mm above saved position
G60 Q0 F6000 X Y 
; relative positioning
G91 
; drop Z by 5mm
G1 Z-5 F360 
; absolute positioning
G90 
;
M572 D0 S0.016; Override pressure advance value
; MANUAL_TOOL_CHANGE T0
M106 S0
;LAYER_CHANGE
;Z:0.2
;HEIGHT:0.2
;BEFORE_LAYER_CHANGE
;0.2
G92 E0

G1 E-1.5 F2700
;AFTER_LAYER_CHANGE
;0.2
;_SET_FAN_SPEED_CHANGING_LAYER
M204 P500
M204 T500
G1 Z.4 F9000
G1 X284.472 Y149.177
M73 P2 R61
G1 Z.4
G1 Z.2
G1 E1.5 F2100
;TYPE:Skirt
;WIDTH:0.545
G1 F3000
G1 X284.869 Y148.134 E.04892
G1 X286.077 Y146.302 E.0962
G1 X287.599 Y144.546 E.10187
G1 X289.268 Y143.064 E.09784
G1 X291.255 Y141.728 E.10494
G1 X293.332 Y140.706 E.10148
G1 X295.453 Y139.991 E.09811
G1 X297.714 Y139.543 E.10103
G1 X300.092 Y139.4 E.10443
G1 X324.46 Y140.858 E1.07011
G1 X325.605 Y141.105 E.05133
G1 X326.479 Y141.544 E.0429
G1 X327.172 Y142.116 E.03937
G1 X327.802 Y142.955 E.04598
G1 X328.175 Y143.818 E.04123
G1 X328.36 Y144.79 E.04339
G1 X328.369 Y155.069 E.45058
G1 X328.175 Y156.182 E.04953
G1 X327.681 Y157.244 E.05135
G1 X327.137 Y157.919 E.038
G1 X326.399 Y158.508 E.04139
G1 X325.498 Y158.932 E.04364
G1 X324.591 Y159.13 E.0407
G1 X300.037 Y160.601 E1.07825
G1 X297.672 Y160.452 E.10388
G1 X296.395 Y160.234 E.05678
G1 X295.075 Y159.904 E.05967
G1 X292.631 Y158.987 E.11443
G1 X290.367 Y157.724 E.11365
G1 X288.841 Y156.592 E.08328
G1 X287.487 Y155.34 E.08085
G1 X286.088 Y153.713 E.09404
G1 X284.902 Y151.926 E.09402
G1 X284.523 Y151.027 E.04277
G1 X284.381 Y150.031 E.04409
G1 X284.468 Y149.217 E.0359
; printing object 3DBenchy.stl id:64 copy 0
G1 E-1.5 F2700
G1 Z.6 F9000
G1 X295.034 Y144.1 Z.6
G1 Z.2
G1 E1.5 F2100
;TYPE:Inner wall
;WIDTH:0.544999
G1 F2400
G1 X294.783 Y144.445 E.01872
G1 X294.439 Y145.135 E.03381
G1 X293.87 Y146.606 E.06913
G1 X293.588 Y146.177 E.02253
G1 X293.297 Y145.915 E.01715
G1 X292.708 Y145.676 E.0279
G1 X292.17 Y145.626 E.02366
G1 X292.723 Y145.254 E.02923
G1 X293.521 Y144.791 E.04043
G1 X294.341 Y144.386 E.04009
G1 X294.997 Y144.115 E.03111
G1 E-1.5 F2700
G1 Z.6 F9000
G1 X289.255 Y148.951 Z.6
G1 Z.2
G1 E1.5 F2100
;WIDTH:0.445205
G1 F2400
G1 X288.844 Y149.548 E.02546
;WIDTH:0.448812
G1 X288.519 Y150.097 E.0226
;WIDTH:0.448962
G1 X288.381 Y150.464 E.01391
G1 X288.125 Y150.03 E.01786
G1 X288.172 Y149.888 E.00531
;WIDTH:0.448812
G1 X288.577 Y149.235 E.02722
;WIDTH:0.445205
G1 X288.906 Y148.757 E.02039
G1 X289.22 Y148.932 E.01261
G1 E-1.5 F2700
M73 P2 R60
G1 Z.6 F9000
G1 X314.301 Y150.841 Z.6
G1 Z.2
G1 E1.5 F2100
;WIDTH:0.544999
G1 F2400
G1 X314.387 Y150.216 E.02767
G1 X314.324 Y149.769 E.0198
G1 X314.154 Y149.378 E.01864
G1 X314.532 Y149.098 E.02064
G1 X314.922 Y148.567 E.02888
G1 X315.034 Y148.159 E.01852
;WIDTH:0.516814
G1 X315.05 Y147.762 E.01645
;WIDTH:0.544999
G1 X314.974 Y147.24 E.02311
G1 X314.841 Y146.907 E.01572
G1 X314.483 Y146.443 E.02569
G1 X314.126 Y146.142 E.02047
G1 X313.575 Y145.875 E.02684
G1 X312.881 Y145.706 E.03133
G1 X312.345 Y145.67 E.02352
G1 X311.659 Y145.711 E.03015
G1 X311.089 Y145.851 E.02572
G1 X310.574 Y146.105 E.02516
G1 X310.126 Y146.389 E.02328
G1 X309.887 Y146.639 E.01513
G1 X309.696 Y146.353 E.01506
G1 X309.311 Y146.041 E.02175
G1 X308.777 Y145.842 E.025
G1 X308.49 Y145.809 E.01265
G1 X307.866 Y145.846 E.0274
G1 X307.089 Y145.841 E.03404
G1 X306.407 Y145.889 E.03
G1 X305.536 Y146.07 E.03897
G1 X305.065 Y146.3 E.02301
G1 X304.612 Y145.826 E.02869
G1 X304.176 Y145.574 E.02208
G1 X303.736 Y145.426 E.02037
G1 X303.255 Y145.364 E.02127
G1 X302.86 Y145.402 E.01738
G1 X302.214 Y145.599 E.02962
G1 X301.806 Y145.879 E.0217
G1 X301.589 Y145.766 E.01069
G1 X301.209 Y145.667 E.01723
G1 X300.675 Y145.664 E.02342
G1 X300.211 Y145.834 E.02165
G1 X299.893 Y146.052 E.01689
G1 X299.333 Y145.714 E.02868
G1 X298.851 Y145.635 E.02142
G1 X298.946 Y145.336 E.01374
G1 X298.971 Y144.735 E.02638
G1 X298.862 Y144.302 E.01956
G1 X298.717 Y144.001 E.01467
G1 X298.498 Y143.682 E.01696
G1 X298.33 Y143.533 E.00985
G1 X298.004 Y143.326 E.01693
G1 X298.664 Y143.238 E.02921
G1 X299.562 Y143.184 E.03942
G1 X300.49 Y143.189 E.04068
G1 X324.084 Y144.619 E1.03616
G1 X324.411 Y144.726 E.01506
G1 X324.522 Y144.885 E.00851
G1 X324.592 Y145.14 E.01158
G1 X324.592 Y146.346 E.0529
G1 X324.463 Y146.257 E.00687
G1 X323.707 Y145.884 E.03697
G1 X322.969 Y145.709 E.03324
G1 X322.164 Y145.676 E.03533
G1 X321.502 Y145.77 E.02932
G1 X320.929 Y145.957 E.0264
G1 X320.648 Y146.089 E.01362
G1 X320.214 Y146.397 E.02334
G1 X319.845 Y146.773 E.02308
G1 X319.506 Y147.395 E.03104
;WIDTH:0.52973
G1 X319.449 Y147.648 E.01104
;WIDTH:0.503611
G1 X319.391 Y147.901 E.01045
;WIDTH:0.510168
G1 X319.425 Y148.383 E.0197
;WIDTH:0.544999
G1 X319.648 Y148.926 E.02572
G1 X319.772 Y149.088 E.00896
G1 X320.119 Y149.399 E.02041
G1 X320.585 Y149.619 E.02258
;WIDTH:0.571054
G1 X320.791 Y149.685 E.00997
;WIDTH:0.597109
G1 X320.997 Y149.751 E.01046
G1 X321.243 Y149.746 E.01194
;WIDTH:0.593331
G1 X321.936 Y149.586 E.03414
;WIDTH:0.544999
G1 X322.426 Y149.236 E.02638
G1 X322.516 Y149.253 E.00401
G1 X322.621 Y149.579 E.01503
G1 X322.634 Y150.454 E.03832
G1 X322.533 Y150.819 E.01661
G1 X322.407 Y150.776 E.00579
G1 X321.932 Y150.506 E.02398
;WIDTH:0.571054
G1 X321.577 Y150.404 E.017
;WIDTH:0.597108
G1 X321.223 Y150.302 E.01784
G1 X320.824 Y150.347 E.01943
;WIDTH:0.567638
G1 X320.303 Y150.536 E.02537
;WIDTH:0.544999
G1 X319.891 Y150.857 E.02291
G1 X319.522 Y150.729 E.01713
G1 X318.993 Y150.692 E.02323
G1 X318.966 Y148.623 E.0907
;WIDTH:0.51537
G1 X318.948 Y148.093 E.0219
;WIDTH:0.500244
G1 X318.991 Y147.515 E.02315
;WIDTH:0.544999
G1 X318.966 Y147.091 E.0186
G1 X318.822 Y146.684 E.01893
G1 X318.548 Y146.321 E.01994
G1 X318.116 Y146.016 E.02316
G1 X317.499 Y145.832 E.02822
G1 X317.036 Y145.826 E.02032
G1 X316.583 Y145.95 E.02059
G1 X316.049 Y146.295 E.02785
G1 X315.77 Y146.644 E.01959
G1 X315.588 Y147.031 E.01877
G1 X315.504 Y147.453 E.01886
;WIDTH:0.52992
G1 X315.507 Y148.047 E.02526
;WIDTH:0.544999
G1 X315.498 Y150.722 E.11725
G1 X314.843 Y150.82 E.02902
G1 X314.45 Y150.965 E.01834
G1 X314.331 Y150.866 E.00676
G1 X313.635 Y151.054 F9000
G1 F2400
G1 X313.809 Y150.742 E.01564
G1 X313.885 Y150.196 E.0242
G1 X313.799 Y149.788 E.01825
G1 X313.606 Y149.49 E.01557
;WIDTH:0.584498
G1 X313.47 Y149.375 E.00844
;WIDTH:0.623997
G1 X313.333 Y149.259 E.00906
;WIDTH:0.663496
G1 X313.197 Y149.144 E.00967
G1 X313.428 Y149.08 E.01298
;WIDTH:0.623997
G1 X313.659 Y149.017 E.01215
;WIDTH:0.584498
G1 X313.89 Y148.953 E.01133
;WIDTH:0.544999
G1 X314.186 Y148.731 E.01623
G1 X314.454 Y148.386 E.01915
G1 X314.56 Y148.011 E.01706
G1 X314.548 Y147.598 E.01811
G1 X314.406 Y147.158 E.02028
G1 X314.055 Y146.716 E.02475
G1 X313.615 Y146.43 E.02299
G1 X312.964 Y146.229 E.02988
G1 X312.373 Y146.172 E.026
G1 X311.715 Y146.21 E.02889
G1 X311.221 Y146.335 E.02237
G1 X310.69 Y146.621 E.02644
G1 X310.336 Y146.884 E.01932
G1 X309.953 Y147.348 E.02635
G1 X309.675 Y147.899 E.02707
G1 X309.647 Y147.517 E.01677
G1 X309.517 Y147.009 E.02299
G1 X309.32 Y146.685 E.01661
G1 X309.052 Y146.471 E.01504
G1 X308.713 Y146.34 E.01591
G1 X308.459 Y146.31 E.01121
G1 X307.861 Y146.348 E.02629
G1 X307.115 Y146.342 E.03269
G1 X306.503 Y146.382 E.02687
G1 X305.763 Y146.527 E.03309
G1 X305.298 Y146.744 E.0225
G1 X304.868 Y147.004 E.02203
G1 X304.831 Y146.889 E.00531
G1 X304.685 Y146.628 E.01308
G1 X304.375 Y146.279 E.02048
G1 X303.932 Y146.012 E.02269
G1 X303.667 Y145.924 E.01222
G1 X303.282 Y145.87 E.01706
G1 X302.988 Y145.888 E.01291
G1 X302.438 Y146.049 E.02511
G1 X302.038 Y146.332 E.02148
G1 X301.85 Y146.53 E.012
G1 X301.73 Y146.42 E.00713
G1 X301.388 Y146.226 E.01722
G1 X300.976 Y146.149 E.0184
G1 X300.7 Y146.173 E.01213
G1 X300.259 Y146.391 E.02158
G1 X299.89 Y146.824 E.02494
G1 X299.685 Y146.527 E.01583
G1 X299.246 Y146.223 E.02344
G1 X298.917 Y146.139 E.01485
G1 X298.494 Y146.156 E.01855
G1 X298.146 Y146.317 E.01681
;WIDTH:0.541473
G1 X298.024 Y146.398 E.00639
;WIDTH:0.576658
G1 X297.901 Y146.479 E.00685
;WIDTH:0.611843
G1 X297.779 Y146.56 E.0073
;WIDTH:0.624242
G1 X297.575 Y146.884 E.01941
;WIDTH:0.655125
G1 X297.527 Y147.089 E.01127
;WIDTH:0.686008
G1 X297.479 Y147.295 E.01184
G1 X297.51 Y147.495 E.01139
;WIDTH:0.642545
G1 X297.542 Y147.696 E.01062
;WIDTH:0.60118
G1 X297.723 Y148.163 E.02444
G1 X298.016 Y148.626 E.02668
;WIDTH:0.57309
G1 X298.309 Y149.088 E.02534
;WIDTH:0.544999
G1 X298.407 Y149.253 E.0084
G1 X298.385 Y149.382 E.00575
G1 X297.885 Y150.229 E.04314
G1 X297.57 Y149.442 E.03714
;WIDTH:0.57309
G1 X297.393 Y148.924 E.02534
;WIDTH:0.60118
G1 X297.216 Y148.406 E.02668
;WIDTH:0.602903
G1 X297.018 Y147.877 E.02763
;WIDTH:0.642545
G1 X296.918 Y147.593 E.01574
;WIDTH:0.686008
G1 X296.817 Y147.31 E.01688
G1 X296.95 Y146.91 E.02369
;WIDTH:0.655125
G1 X297.039 Y146.658 E.01425
;WIDTH:0.638076
G1 X297.266 Y146.237 E.02486
G1 X297.462 Y146.131 E.01156
;WIDTH:0.611843
G1 X297.752 Y145.981 E.01624
;WIDTH:0.567976
G1 X298.043 Y145.831 E.01499
;WIDTH:0.544999
G1 X298.354 Y145.513 E.01953
G1 X298.451 Y145.252 E.0122
G1 X298.471 Y144.844 E.01788
G1 X298.397 Y144.494 E.0157
G1 X298.133 Y144.027 E.02352
G1 X297.825 Y143.785 E.01716
G1 X297.543 Y143.657 E.01359
;WIDTH:0.582622
G1 X297.357 Y143.615 E.00898
;WIDTH:0.620244
G1 X297.171 Y143.573 E.00961
G1 X296.893 Y143.606 E.0141
;WIDTH:0.594447
G1 X296.352 Y143.743 E.02691
G1 X296.15 Y143.829 E.01056
;WIDTH:0.588493
G1 X295.609 Y144.208 E.0315
;WIDTH:0.544999
G1 X295.23 Y144.672 E.02623
G1 X294.907 Y145.316 E.03159
G1 X294.289 Y146.921 E.07539
G1 X294.026 Y147.697 E.03591
;WIDTH:0.527659
G1 X293.822 Y148.319 E.02769
;WIDTH:0.526284
G1 X293.713 Y148.59 E.01233
;WIDTH:0.55271
G1 X293.604 Y148.861 E.013
;WIDTH:0.594236
G1 X293.443 Y149.243 E.01996
;WIDTH:0.635761
G1 X293.283 Y149.625 E.02146
;WIDTH:0.677286
G1 X293.122 Y150.007 E.02297
G1 X292.848 Y149.837 E.01789
G1 X292.437 Y149.726 E.02358
G1 X292.706 Y149.355 E.0254
G1 X292.856 Y149.112 E.01582
;WIDTH:0.635761
G1 X293.007 Y148.869 E.01478
;WIDTH:0.594236
G1 X293.157 Y148.626 E.01375
;WIDTH:0.55271
G1 X293.282 Y148.379 E.01232
;WIDTH:0.526284
G1 X293.407 Y148.132 E.01168
;WIDTH:0.527659
G1 X293.559 Y147.575 E.02444
;WIDTH:0.544999
G1 X293.551 Y147.249 E.01431
G1 X293.453 Y146.892 E.01622
G1 X293.243 Y146.543 E.01786
G1 X293.062 Y146.372 E.01092
G1 X292.699 Y146.183 E.01793
G1 X292.314 Y146.131 E.01705
G1 X291.751 Y146.151 E.0247
G1 X290.687 Y146.152 E.04663
G1 X291.027 Y145.852 E.01988
G1 X291.702 Y145.335 E.03727
G1 X292.457 Y144.828 E.03987
G1 X293.284 Y144.348 E.04189
G1 X294.134 Y143.929 E.04156
G1 X294.986 Y143.576 E.04042
G1 X295.508 Y143.401 E.02413
;WIDTH:0.594447
G1 X296.816 Y143.058 E.0651
;WIDTH:0.593939
G1 X297.563 Y142.879 E.03699
;WIDTH:0.544999
G1 X298.616 Y142.738 E.04654
G1 X299.548 Y142.681 E.04094
G1 X300.506 Y142.687 E.04202
G1 X323.453 Y144.078 E1.00773
G1 X324.372 Y144.157 E.04042
G1 X324.694 Y144.303 E.01549
G1 X324.867 Y144.466 E.01042
G1 X325.035 Y144.781 E.01569
G1 X325.094 Y145.093 E.01389
G1 X325.095 Y147.58 E.10903
G1 X324.698 Y147.087 E.02773
G1 X324.224 Y146.699 E.02687
G1 X323.574 Y146.368 E.03199
G1 X322.939 Y146.21 E.02865
G1 X322.212 Y146.176 E.03191
G1 X321.658 Y146.247 E.0245
G1 X321.086 Y146.434 E.0264
G1 X320.687 Y146.659 E.02003
G1 X320.243 Y147.08 E.02683
G1 X319.944 Y147.625 E.02727
G1 X319.859 Y147.93 E.01387
G1 X319.902 Y148.293 E.01604
G1 X320.046 Y148.621 E.01568
G1 X320.379 Y148.969 E.02112
G1 X320.846 Y149.183 E.02252
G1 X321.185 Y149.223 E.01496
G1 X321.732 Y149.126 E.02436
G1 X322.216 Y148.756 E.02672
G1 X322.453 Y148.734 E.01045
G1 X322.656 Y148.77 E.00904
G1 X322.859 Y148.883 E.01017
G1 X322.99 Y149.044 E.0091
G1 X323.123 Y149.554 E.02309
G1 X323.152 Y150.296 E.03254
G1 X323.06 Y150.865 E.02528
G1 X322.89 Y151.18 E.01569
G1 X322.726 Y151.289 E.0086
G1 X322.46 Y151.346 E.01193
G1 X322.241 Y151.26 E.01031
G1 X321.724 Y150.963 E.02612
G1 X321.194 Y150.83 E.02399
G1 X320.943 Y150.847 E.011
G1 X320.552 Y150.971 E.01799
G1 X320.27 Y151.186 E.01555
G1 X320.033 Y151.524 E.0181
G1 X319.849 Y151.394 E.00988
G1 X319.521 Y151.258 E.01558
G1 X319.096 Y151.186 E.01886
G1 X318.469 Y151.252 E.02767
G1 X318.492 Y150.845 E.01785
G1 X318.475 Y148.087 E.12089
G1 X318.512 Y147.485 E.02643
G1 X318.433 Y147.056 E.01913
G1 X318.267 Y146.759 E.01493
G1 X317.919 Y146.478 E.01961
G1 X317.719 Y146.392 E.00953
G1 X317.212 Y146.321 E.02244
G1 X316.935 Y146.36 E.01229
G1 X316.481 Y146.58 E.02208
G1 X316.291 Y146.764 E.01159
G1 X316.062 Y147.195 E.0214
G1 X315.983 Y147.667 E.02097
G1 X315.999 Y148.482 E.03572
G1 X316 Y151.228 E.12038
G1 X315.535 Y151.22 E.02036
G1 X314.931 Y151.314 E.02681
G1 X314.607 Y151.457 E.01554
G1 X314.364 Y151.678 E.01439
G1 X314.201 Y151.417 E.01346
G1 X313.952 Y151.206 E.01433
G1 X313.671 Y151.071 E.01367
G1 E-1.5 F2700
G1 Z.6 F9000
G1 X316.53 Y154.23 Z.6
G1 Z.2
G1 E1.5 F2100
G1 F2400
G1 X318.477 Y154.221 E.08537
G1 X318.996 Y154.26 E.02282
G1 X319.474 Y154.224 E.02099
G1 X319.962 Y154.053 E.02267
G1 X320.33 Y153.772 E.0203
G1 X320.773 Y154.022 E.02231
G1 X321.396 Y154.277 E.02953
G1 X322.217 Y154.397 E.03637
G1 X323.092 Y154.341 E.0384
G1 X323.749 Y154.168 E.0298
G1 X324.054 Y154.042 E.01448
G1 X324.595 Y153.72 E.02759
G1 X324.596 Y154.788 E.04682
G1 X324.509 Y155.168 E.0171
G1 X324.31 Y155.333 E.01135
G1 X324.113 Y155.379 E.00887
G1 X300.776 Y156.797 E1.02486
G1 X299.994 Y156.822 E.03429
G1 X298.946 Y156.786 E.04597
G1 X298.201 Y156.71 E.03284
G1 X297.446 Y156.59 E.03352
G1 X296.524 Y156.383 E.04141
G1 X295.306 Y155.999 E.05599
G1 X294.775 Y155.797 E.02489
G1 X294.008 Y155.456 E.0368
G1 X293.282 Y155.077 E.03589
G1 X292.714 Y154.739 E.02897
G1 X292.19 Y154.395 E.02749
G1 X291.257 Y153.685 E.0514
G1 X290.837 Y153.322 E.02433
G1 X290.289 Y152.795 E.03333
G1 X292.232 Y152.788 E.08515
G1 X292.883 Y152.671 E.02901
G1 X293.232 Y152.507 E.01692
G1 X293.46 Y152.645 E.0117
G1 X293.851 Y152.765 E.01791
G1 X294.378 Y152.768 E.0231
G1 X294.777 Y152.647 E.01829
G1 X295.079 Y152.46 E.01558
G1 X295.433 Y152.115 E.02164
G1 X295.785 Y152.427 E.02063
G1 X296.122 Y152.632 E.01728
G1 X296.58 Y152.758 E.02085
G1 X296.918 Y152.793 E.0149
G1 X297.511 Y152.683 E.02644
G1 X297.862 Y152.5 E.01735
G1 X297.987 Y152.58 E.00651
G1 X298.339 Y152.735 E.01685
G1 X298.729 Y152.787 E.01725
G1 X299.203 Y152.735 E.02088
G1 X299.452 Y152.635 E.01177
G1 X299.814 Y152.42 E.01847
G1 X299.978 Y152.523 E.00847
G1 X300.44 Y152.737 E.02231
