; generated by PrusaSlicer 2.6.1+win64 on 2024-02-15 at 03:30:55 UTC

; 

; external perimeters extrusion width = 1.50mm
; perimeters extrusion width = 1.50mm
; infill extrusion width = 1.50mm
; solid infill extrusion width = 1.50mm
; top infill extrusion width = 1.50mm
; support material extrusion width = 1.50mm
; first layer extrusion width = 1.50mm

; external perimeters extrusion width = 1.50mm
; perimeters extrusion width = 1.50mm
; infill extrusion width = 1.50mm
; solid infill extrusion width = 1.50mm
; top infill extrusion width = 1.50mm
; support material extrusion width = 1.50mm
; first layer extrusion width = 1.50mm

; external perimeters extrusion width = 1.50mm
; perimeters extrusion width = 1.50mm
; infill extrusion width = 1.50mm
; solid infill extrusion width = 1.50mm
; top infill extrusion width = 1.50mm
; support material extrusion width = 1.50mm
; first layer extrusion width = 1.50mm

; external perimeters extrusion width = 1.50mm
; perimeters extrusion width = 1.50mm
; infill extrusion width = 1.50mm
; solid infill extrusion width = 1.50mm
; top infill extrusion width = 1.50mm
; support material extrusion width = 1.50mm
; first layer extrusion width = 1.50mm

; external perimeters extrusion width = 1.50mm
; perimeters extrusion width = 1.50mm
; infill extrusion width = 1.50mm
; solid infill extrusion width = 1.50mm
; top infill extrusion width = 1.50mm
; support material extrusion width = 1.50mm
; first layer extrusion width = 1.50mm

;TYPE:Custom
;
;Start G-code Beginning

G28 ;Home all axes
G1 Z5 F5000 ;Lift nozzle

M140 P0 S60 ;Heat Bed 0
M140 P1 S60 ;Heat Bed 1
M116 ;Wait heaters to stabilize
M117 "Bed 0 & 1 at temp 50c"

T0 ;Make current tool active
G10 S210 P0 ;Heat Hot End

M116 
;Wait heaters to stabilize


M117 "Hot End at temp 210c"

G1 E20 F60 ;Prime the extruder
M117 "Extruder Primed"

;Start G-code Finish
;
G21 ; set units to millimeters
G90 ; use absolute coordinates
M82 ; use absolute distances for extrusion
G92 E0
; Filament gcode
M107
;LAYER_CHANGE
;Z:1
;HEIGHT:1
G1 Z1 F7800
G1 E-1.5 F2700
G92 E0
G1 Z1.5 F7800
G1 X253.029 Y132.112
G1 Z1
G1 E1.5 F2700
;TYPE:Perimeter
;WIDTH:1.5
G1 F1800
G1 X243.192 Y132.112 E6.75696
G1 X243.192 Y126.183 E9.92546
G1 X253.029 Y126.183 E15.18242
G1 X253.029 Y131.962 E18.27075
G1 X254.315 Y133.397 F7800
;TYPE:External perimeter
G1 F1800
G1 X241.907 Y133.397 E24.90166
G1 X241.907 Y124.897 E29.44411
G1 X254.315 Y124.897 E36.07502
G1 X254.315 Y133.247 E40.53731
G1 X253.335 Y133.199 F7800
G1 E39.03731 F2700
G92 E0
G1 Z1.5 F7800
G1 X249.669 Y126.568
G1 Z1
G1 E1.5 F2700
;TYPE:Solid infill
;WIDTH:1.67741
G1 F1800
G1 X252.065 Y128.965 E3.56117
G1 X252.065 Y131.033 E4.81885
G1 X248.179 Y127.147 E8.1611
G1 X246.11 Y127.147 E9.41939
G1 X250.111 Y131.148 E12.86055
G1 X248.043 Y131.148 E14.11823
G1 X244.156 Y127.262 E17.46091
G1 X244.156 Y129.33 E18.71859
G1 X246.552 Y131.726 E20.77933
G1 E19.27933 F2700
G92 E0
G1 Z1.5 F7800
G1 X268.605 Y132.112
G1 Z1
G1 E1.5 F2700
;TYPE:Perimeter
;WIDTH:1.5
G1 F1800
G1 X268.605 Y126.183 E4.6685
G1 X278.412 Y126.183 E9.90942
G1 X278.412 Y132.112 E13.07792
G1 X268.755 Y132.112 E18.23868
G1 X267.32 Y133.397 F7800
;TYPE:External perimeter
G1 F1800
G1 X267.32 Y124.897 E22.78113
G1 X279.697 Y124.897 E29.39548
G1 X279.697 Y133.397 E33.93793
G1 X267.47 Y133.397 E40.47212
G1 X267.637 Y132.449 F7800
G1 E38.97212 F2700
G92 E0
G1 Z1.5 F7800
G1 X275.058 Y126.568
G1 Z1
G1 E1.5 F2700
;TYPE:Solid infill
;WIDTH:1.67431
G1 F1800
G1 X277.448 Y128.958 E3.55122
G1 X277.448 Y131.022 E4.80381
G1 X273.572 Y127.147 E8.12997
G1 X271.508 Y127.147 E9.38256
G1 X275.509 Y131.148 E12.81643
G1 X273.445 Y131.148 E14.06902
G1 X269.569 Y127.273 E17.39518
G1 X269.569 Y129.337 E18.64777
G1 X271.959 Y131.726 E20.69857
G1 E19.19857 F2700
G92 E0
G1 Z1.5 F7800
G1 X312.893 Y132.112
G1 Z1
G1 E1.5 F2700
;TYPE:Perimeter
;WIDTH:1.5
G1 F1800
G1 X304.241 Y132.112 E6.12368
G1 X304.241 Y126.183 E9.29218
G1 X312.893 Y126.183 E13.91586
G1 X312.893 Y131.962 E17.00419
G1 X314.178 Y133.397 F7800
;TYPE:External perimeter
G1 F1800
G1 X302.956 Y133.397 E23.0013
G1 X302.956 Y124.897 E27.54375
G1 X314.178 Y124.897 E33.54086
G1 X314.178 Y133.247 E38.00315
G1 X313.202 Y133.183 F7800
G1 E36.50315 F2700
G92 E0
G1 Z1.5 F7800
G1 X312.507 Y129.289
G1 Z1
G1 E1.5 F2700
;TYPE:Solid infill
;WIDTH:1.55767
G1 F1800
G1 X310.365 Y127.147 E3.19148
G1 X308.466 Y127.147 E4.25185
G1 X311.929 Y130.61 E6.98649
G1 X311.929 Y131.148 E7.2869
G1 X310.567 Y131.148 E8.04742
G1 X306.566 Y127.147 E11.2069
G1 X305.205 Y127.147 E11.96686
G1 X305.205 Y127.685 E12.26727
G1 X308.668 Y131.148 E15.00191
G1 X306.769 Y131.148 E16.06228
G1 X304.627 Y129.006 E17.75376
G1 E16.25376 F2700
G92 E0
G1 Z1.5 F7800
G1 X360.294 Y132.112
G1 Z1
G1 E1.5 F2700
;TYPE:Perimeter
;WIDTH:1.5
G1 F1800
G1 X351.231 Y132.112 E6.34333
G1 X351.231 Y126.183 E9.51183
G1 X360.294 Y126.183 E14.35516
G1 X360.294 Y131.962 E17.44349
G1 X361.579 Y133.397 F7800
;TYPE:External perimeter
G1 F1800
G1 X349.946 Y133.397 E23.66024
G1 X349.946 Y124.897 E28.20269
G1 X361.579 Y124.897 E34.41944
G1 X361.579 Y133.247 E38.88173
G1 X360.601 Y133.189 F7800
G1 E37.38173 F2700
G92 E0
G1 Z1.5 F7800
G1 X357.1 Y126.568
G1 Z1
G1 E1.5 F2700
;TYPE:Solid infill
;WIDTH:1.59915
G1 F1800
G1 X359.33 Y128.799 E3.31577
G1 X359.33 Y130.757 E4.44285
G1 X355.72 Y127.147 E7.38161
G1 X353.762 Y127.147 E8.50869
G1 X357.763 Y131.148 E11.76575
G1 X355.805 Y131.148 E12.89283
G1 X352.195 Y127.538 E15.83159
G1 X352.195 Y129.496 E16.95867
G1 X354.425 Y131.726 E18.77403
G1 E17.27403 F2700
G92 E0
G1 Z1.5 F7800
G1 X397.152 Y132.112
G1 Z1
G1 E1.5 F2700
;TYPE:Perimeter
;WIDTH:1.5
G1 F1800
G1 X387.284 Y132.112 E6.77352
G1 X387.284 Y126.183 E9.94202
G1 X397.152 Y126.183 E15.21554
G1 X397.152 Y131.962 E18.30387
G1 X398.437 Y133.397 F7800
;TYPE:External perimeter
G1 F1800
G1 X385.998 Y133.397 E24.95135
G1 X385.998 Y124.897 E29.4938
G1 X398.437 Y124.897 E36.14128
G1 X398.437 Y133.247 E40.60357
G1 X397.457 Y133.199 F7800
G1 E39.10357 F2700
G92 E0
G1 Z1.5 F7800
G1 X393.785 Y126.568
G1 Z1
G1 E1.5 F2700
;TYPE:Solid infill
;WIDTH:1.68051
G1 F1800
G1 X396.188 Y128.971 E3.57114
G1 X396.188 Y131.044 E4.83454
G1 X392.29 Y127.147 E8.19379
G1 X390.217 Y127.147 E9.45719
G1 X394.218 Y131.148 E12.90564
G1 X392.145 Y131.148 E14.16904
G1 X388.248 Y127.251 E17.52786
G1 X388.248 Y129.324 E18.79126
G1 X390.65 Y131.726 E20.86154
;LAYER_CHANGE
;Z:2
;HEIGHT:1
G1 Z2 F7800
G1 E19.36154 F2700
G92 E0
G1 Z2.5 F7800
G1 X253.029 Y132.112
G1 Z2
G1 E1.5 F2700
;TYPE:Perimeter
;WIDTH:1.5
G1 F1200
G1 X243.192 Y132.112 E6.75696
G1 X243.192 Y126.183 E9.92546
G1 X253.029 Y126.183 E15.18242
G1 X253.029 Y131.962 E18.27075
G1 X254.315 Y133.397 F7800
;TYPE:External perimeter
G1 F1800
G1 X241.907 Y133.397 E24.90166
G1 X241.907 Y124.897 E29.44411
G1 X254.315 Y124.897 E36.07502
G1 X254.315 Y133.247 E40.53731
G1 X253.335 Y133.199 F7800
G1 E39.03731 F2700
G92 E0
G1 Z2.5 F7800
G1 X268.605 Y132.112
G1 Z2
G1 E1.5 F2700
;TYPE:Perimeter
G1 F1200
G1 X268.605 Y126.183 E4.6685
G1 X278.412 Y126.183 E9.90942
G1 X278.412 Y132.112 E13.07792
G1 X268.755 Y132.112 E18.23868
G1 X267.32 Y133.397 F7800
;TYPE:External perimeter
G1 F1800
G1 X267.32 Y124.897 E22.78113
G1 X279.697 Y124.897 E29.39548
G1 X279.697 Y133.397 E33.93793
G1 X267.47 Y133.397 E40.47212
G1 X267.637 Y132.449 F7800
G1 E38.97212 F2700
G92 E0
G1 Z2.5 F7800
G1 X313.317 Y132.112
G1 Z2
G1 E1.5 F2700
;TYPE:Perimeter
G1 F1200
G1 X303.825 Y132.112 E6.57259
G1 X303.825 Y126.183 E9.74109
G1 X313.317 Y126.183 E14.81368
G1 X313.317 Y131.962 E17.90201
G1 X314.603 Y133.397 F7800
;TYPE:External perimeter
G1 F1800
G1 X302.54 Y133.397 E24.34855
G1 X302.54 Y124.897 E28.891
G1 X314.603 Y124.897 E35.33754
G1 X314.603 Y133.247 E39.79983
G1 X313.624 Y133.194 F7800
G1 E38.29983 F2700
G92 E0
G1 Z2.5 F7800
G1 X364.197 Y132.112
G1 Z2
G1 E1.5 F2700
;TYPE:Overhang perimeter
;WIDTH:1
G1 F3600
G1 X362.829 Y132.112 E1.94669
;TYPE:Perimeter
;WIDTH:1.5
G1 X348.696 Y132.112 E9.49946
;TYPE:Overhang perimeter
;WIDTH:1
G1 X347.52 Y132.112 E9.88346
G1 X347.52 Y126.183 E11.81946
G1 X348.696 Y126.183 E12.20346
;TYPE:Perimeter
;WIDTH:1.5
G1 X362.829 Y126.183 E19.75623
;TYPE:Overhang perimeter
;WIDTH:1
G1 X364.197 Y126.183 E20.20292
G1 X364.197 Y129.147 E21.17076
G1 X364.197 Y131.962 E22.08994
G1 X362.829 Y133.397 F7800
;TYPE:External perimeter
;WIDTH:1.5
G1 F1800
G1 X348.696 Y133.397 E29.64271
;TYPE:Overhang perimeter
;WIDTH:1
G1 F3600
G1 X346.234 Y133.397 E30.44663
G1 X346.234 Y124.897 E33.22214
G1 X348.696 Y124.897 E34.02606
;TYPE:External perimeter
;WIDTH:1.5
G1 F1800
G1 X362.829 Y124.897 E41.57883
;TYPE:Overhang perimeter
;WIDTH:1
G1 F3600
G1 X365.482 Y124.897 E42.44512
G1 X365.482 Y129.147 E43.83288
G1 X365.482 Y133.397 E45.22064
G1 X362.979 Y133.397 E46.03795
G1 X362.071 Y132.746 F7800
G1 E44.53795 F2700
G92 E0
G1 Z2.5 F7800
G1 X363.348 Y126.557
G1 Z2
G1 E1.5 F2700
;TYPE:Bridge infill
;WIDTH:1.00539
G1 F3600
G1 X363.348 Y131.266 E3.05426
G1 X362.293 Y131.266 E3.40248
G1 X362.293 Y127.029 E4.80095
G1 X361.237 Y127.029 E5.1495
G1 X361.237 Y131.738 E6.70376
G1 E5.20376 F2700
G92 E0
G1 Z2.5 F7800
G1 X348.471 Y131.738
G1 Z2
G1 E1.5 F2700
;WIDTH:1.21
G1 F3600
G1 X348.471 Y127.029 E3.75124
G1 X349.731 Y127.029 E4.35361
G1 X349.731 Y131.738 E6.60485
G1 E5.10485 F2700
G92 E0
G1 Z2.5 F7800
G1 X397.152 Y132.112
G1 Z2
G1 E1.5 F2700
;TYPE:Perimeter
;WIDTH:1.5
G1 F1200
G1 X387.284 Y132.112 E6.77352
G1 X387.284 Y126.183 E9.94202
G1 X397.152 Y126.183 E15.21554
G1 X397.152 Y131.962 E18.30387
G1 X398.437 Y133.397 F7800
;TYPE:External perimeter
G1 F1800
G1 X385.998 Y133.397 E24.95135
G1 X385.998 Y124.897 E29.4938
G1 X398.437 Y124.897 E36.14128
G1 X398.437 Y133.247 E40.60357
G1 X397.457 Y133.199 F7800
;LAYER_CHANGE
;Z:3
;HEIGHT:1
G1 Z3 F7800
G1 E39.10357 F2700
G92 E0
G1 Z3.5 F7800
G1 X253.029 Y132.112
G1 Z3
G1 E1.5 F2700
;TYPE:Perimeter
G1 F1200
G1 X243.192 Y132.112 E6.75696
G1 X243.192 Y126.183 E9.92546
G1 X253.029 Y126.183 E15.18242
G1 X253.029 Y131.962 E18.27075
G1 X254.315 Y133.397 F7800
;TYPE:External perimeter
G1 F1800
G1 X241.907 Y133.397 E24.90166
G1 X241.907 Y124.897 E29.44411
G1 X254.315 Y124.897 E36.07502
G1 X254.315 Y133.247 E40.53731
G1 X253.335 Y133.199 F7800
G1 E39.03731 F2700
G92 E0
G1 Z3.5 F7800
G1 X268.605 Y132.112
G1 Z3
G1 E1.5 F2700
;TYPE:Perimeter
G1 F1200
G1 X268.605 Y126.183 E4.6685
G1 X278.412 Y126.183 E9.90942
G1 X278.412 Y132.112 E13.07792
G1 X268.755 Y132.112 E18.23868
G1 X267.32 Y133.397 F7800
;TYPE:External perimeter
G1 F1800
G1 X267.32 Y124.897 E22.78113
G1 X279.697 Y124.897 E29.39548
G1 X279.697 Y133.397 E33.93793
G1 X267.47 Y133.397 E40.47212
G1 X267.637 Y132.449 F7800
G1 E38.97212 F2700
G92 E0
G1 Z3.5 F7800
G1 X313.742 Y132.112
G1 Z3
G1 E1.5 F2700
;TYPE:Perimeter
G1 F1200
G1 X303.409 Y132.112 E7.02202
G1 X303.409 Y126.183 E10.19052
G1 X313.742 Y126.183 E15.71254
G1 X313.742 Y131.962 E18.80087
G1 X315.027 Y133.397 F7800
;TYPE:External perimeter
G1 F1800
G1 X302.124 Y133.397 E25.69632
G1 X302.124 Y124.897 E30.23877
G1 X315.027 Y124.897 E37.13422
G1 X315.027 Y133.247 E41.59651
G1 X314.046 Y133.204 F7800
G1 E40.09651 F2700
G92 E0
G1 Z3.5 F7800
G1 X366.396 Y132.112
G1 Z3
G1 E1.5 F2700
;TYPE:Perimeter
G1 F3600
G1 X345.405 Y132.112 E12.71772
G1 X345.405 Y126.183 E15.88622
G1 X366.426 Y126.183 E27.11998
G1 X366.426 Y131.991 E30.22381
G1 X366.396 Y133.397 F7800
;TYPE:External perimeter
G1 F1800
G1 X344.984 Y133.397 E41.66652
;TYPE:Overhang perimeter
;WIDTH:1
G1 F3600
G1 X344.12 Y133.397 E41.94864
G1 X344.12 Y124.897 E44.72415
G1 X344.984 Y124.897 E45.00627
;TYPE:External perimeter
;WIDTH:1.5
G1 F1800
G1 X366.732 Y124.897 E56.62854
;TYPE:Overhang perimeter
;WIDTH:1
G1 F3600
G1 X367.711 Y124.897 E56.94821
G1 X367.711 Y129.147 E58.33597
G1 X367.711 Y133.397 E59.72373
G1 X366.732 Y133.397 E60.0434
;TYPE:External perimeter
;WIDTH:1.5
G1 F1800
G1 X366.546 Y133.397 E60.1428
G1 E58.6428 F2700
G92 E0
G1 Z3.5 F7800
G1 X364.986 Y126.877
G1 Z3
G1 E1.5 F2700
;TYPE:Solid infill
;WIDTH:0.960409
G1 F2400
G1 X364.986 Y131.418 E2.90803
G1 X365.732 Y131.418 E3.13934
G1 X365.732 Y126.877 E4.54737
G1 X365.628 Y126.877 E4.57962
G1 E3.07962 F2700
G92 E0
G1 Z3.5 F7800
G1 X346.071 Y126.848
G1 Z3
G1 E1.5 F2700
;WIDTH:0.903262
G1 F2400
G1 X346.071 Y131.446 E2.81646
G1 X346.76 Y131.446 E3.01373
G1 X346.76 Y126.848 E4.33019
G1 X346.714 Y126.848 E4.34336
G1 E2.84336 F2700
G92 E0
G1 Z3.5 F7800
G1 X397.152 Y132.112
G1 Z3
G1 E1.5 F2700
;TYPE:Perimeter
;WIDTH:1.5
G1 F1200
G1 X387.284 Y132.112 E6.77352
G1 X387.284 Y126.183 E9.94202
G1 X397.152 Y126.183 E15.21554
G1 X397.152 Y131.962 E18.30387
G1 X398.437 Y133.397 F7800
;TYPE:External perimeter
G1 F1800
G1 X385.998 Y133.397 E24.95135
G1 X385.998 Y124.897 E29.4938
G1 X398.437 Y124.897 E36.14128
G1 X398.437 Y133.247 E40.60357
G1 X397.457 Y133.199 F7800
M106 S229.5
;LAYER_CHANGE
;Z:4
;HEIGHT:1
G1 Z4 F7800
G1 E39.10357 F2700
G92 E0
G1 Z4.5 F7800
G1 X253.029 Y132.112
G1 Z4
G1 E1.5 F2700
;TYPE:Perimeter
G1 F1200
G1 X243.192 Y132.112 E6.75696
G1 X243.192 Y126.183 E9.92546
G1 X253.029 Y126.183 E15.18242
G1 X253.029 Y131.962 E18.27075
G1 X254.315 Y133.397 F7800
;TYPE:External perimeter
G1 F1800
G1 X241.907 Y133.397 E24.90166
G1 X241.907 Y124.897 E29.44411
G1 X254.315 Y124.897 E36.07502
G1 X254.315 Y133.247 E40.53731
G1 X253.335 Y133.199 F7800
G1 E39.03731 F2700
G92 E0
G1 Z4.5 F7800
G1 X268.605 Y132.112
G1 Z4
G1 E1.5 F2700
;TYPE:Perimeter
G1 F1200
G1 X268.605 Y126.183 E4.6685
G1 X278.412 Y126.183 E9.90942
G1 X278.412 Y132.112 E13.07792
G1 X268.755 Y132.112 E18.23868
G1 X267.32 Y133.397 F7800
;TYPE:External perimeter
G1 F1800
G1 X267.32 Y124.897 E22.78113
G1 X279.697 Y124.897 E29.39548
G1 X279.697 Y133.397 E33.93793
G1 X267.47 Y133.397 E40.47212
G1 X267.637 Y132.449 F7800
G1 E38.97212 F2700
G92 E0
G1 Z4.5 F7800
G1 X314.166 Y132.112
G1 Z4
G1 E1.5 F2700
;TYPE:Perimeter
G1 F1200
G1 X302.993 Y132.112 E7.47092
G1 X302.993 Y126.183 E10.63942
G1 X314.166 Y126.183 E16.61034
G1 X314.166 Y131.962 E19.69867
G1 X315.452 Y133.397 F7800
;TYPE:External perimeter
G1 F1800
G1 X301.708 Y133.397 E27.04355
G1 X301.708 Y124.897 E31.586
G1 X315.452 Y124.897 E38.93088
G1 X315.452 Y133.247 E43.39317
G1 X314.469 Y133.214 F7800
G1 E41.89317 F2700
G92 E0
G1 Z4.5 F7800
G1 X367.997 Y132.112
G1 Z4
G1 E1.5 F2700
;TYPE:Perimeter
G1 F3600
G1 X343.885 Y132.112 E14.38561
G1 X343.885 Y126.183 E17.55411
G1 X367.997 Y126.183 E30.43972
G1 X367.997 Y131.962 E33.52805
G1 X368.961 Y133.397 F7800
;TYPE:External perimeter
G1 F1800
G1 X342.87 Y133.397 E47.47125
;TYPE:Overhang perimeter
;WIDTH:1
M106 S255
G1 F3600
G1 X342.6 Y133.397 E47.55941
G1 X342.6 Y124.897 E50.33492
G1 X342.87 Y124.897 E50.42308
M106 S229.5
;TYPE:External perimeter
;WIDTH:1.5
G1 F1800
G1 X368.961 Y124.897 E64.36628
;TYPE:Overhang perimeter
;WIDTH:1
M106 S255
G1 F3600
G1 X369.283 Y124.897 E64.47142
G1 X369.283 Y129.147 E65.85918
M106 S229.5
M106 S255
G1 X369.283 Y133.397 E67.24694
G1 X369.111 Y133.397 E67.3031
M106 S229.5
G1 X368.108 Y132.876 F7800
G1 E65.8031 F2700
G92 E0
G1 Z4.5 F7800
G1 X397.152 Y132.112
G1 Z4
G1 E1.5 F2700
;TYPE:Perimeter
;WIDTH:1.5
G1 F1200
G1 X387.284 Y132.112 E6.77352
G1 X387.284 Y126.183 E9.94202
G1 X397.152 Y126.183 E15.21554
G1 X397.152 Y131.962 E18.30387
G1 X398.437 Y133.397 F7800
;TYPE:External perimeter
G1 F1800
G1 X385.998 Y133.397 E24.95135
G1 X385.998 Y124.897 E29.4938
G1 X398.437 Y124.897 E36.14128
G1 X398.437 Y133.247 E40.60357
G1 X397.457 Y133.199 F7800
;LAYER_CHANGE
;Z:5
;HEIGHT:1
G1 Z5 F7800
G1 E39.10357 F2700
G92 E0
G1 Z5.5 F7800
G1 X253.029 Y132.112
G1 Z5
G1 E1.5 F2700
;TYPE:Perimeter
G1 F1200
G1 X243.192 Y132.112 E6.75696
G1 X243.192 Y126.183 E9.92546
G1 X253.029 Y126.183 E15.18242
G1 X253.029 Y131.962 E18.27075
G1 X254.315 Y133.397 F7800
;TYPE:External perimeter
G1 F1800
G1 X241.907 Y133.397 E24.90166
G1 X241.907 Y124.897 E29.44411
G1 X254.315 Y124.897 E36.07502
G1 X254.315 Y133.247 E40.53731
G1 X253.335 Y133.199 F7800
G1 E39.03731 F2700
G92 E0
G1 Z5.5 F7800
G1 X268.605 Y132.112
G1 Z5
G1 E1.5 F2700
;TYPE:Perimeter
G1 F1200
G1 X268.605 Y126.183 E4.6685
G1 X278.412 Y126.183 E9.90942
G1 X278.412 Y132.112 E13.07792
