; generated by PrusaSlicer 2.6.1+win64 on 2024-02-15 at 10:30:26 UTC

; 

; external perimeters extrusion width = 1.50mm
; perimeters extrusion width = 1.50mm
; infill extrusion width = 1.50mm
; solid infill extrusion width = 1.50mm
; top infill extrusion width = 1.50mm
; support material extrusion width = 1.50mm
; first layer extrusion width = 1.50mm

;TYPE:Custom
;
;Start G-code Beginning

G28 ;Home all axes
G1 Z5 F5000 ;Lift nozzle

M140 P0 S60 ;Heat Bed 0
M140 P1 S60 ;Heat Bed 1
M116 ;Wait heaters to stabilize
M117 "Bed 0 & 1 at temp 50c"

T0 ;Make current tool active
G10 S210 P0 ;Heat Hot End

M116 
;Wait heaters to stabilize


M117 "Hot End at temp 210c"

G1 E20 F60 ;Prime the extruder
M117 "Extruder Primed"

;Start G-code Finish
;
G21 ; set units to millimeters
G90 ; use absolute coordinates
M82 ; use absolute distances for extrusion
G92 E0
; Filament gcode
M107
;LAYER_CHANGE
;Z:1
;HEIGHT:1
G1 Z1 F7800
G1 E-1.5 F2700
G92 E0
G1 Z1.5 F7800
G1 X411.106 Y119.851
G1 Z1
G1 E1.5 F2700
;TYPE:Support material
;WIDTH:1.5
G1 F1800
G1 X412.012 Y119.938 E1.9864
G1 X413.176 Y120.198 E2.62378
G1 X414.303 Y120.606 E3.26431
G1 X415.369 Y121.156 E3.90534
G1 X416.342 Y121.83 E4.53789
G1 X416.583 Y122.041 E4.70907
G1 X417.247 Y122.645 E5.18876
G1 X418.025 Y123.553 E5.82776
G1 X418.676 Y124.549 E6.46364
G1 X418.818 Y124.837 E6.63524
G1 X419.204 Y125.638 E7.11041
G1 X419.582 Y126.773 E7.74971
G1 X419.812 Y127.949 E8.39008
G1 X419.833 Y128.269 E8.56146
G1 X419.889 Y129.147 E9.03162
G1 X419.812 Y130.344 E9.67263
G1 X419.582 Y131.519 E10.31247
G1 X419.304 Y132.356 E10.78379
G1 X419.2 Y132.664 E10.95752
G1 X418.68 Y133.737 E11.59473
G1 X418.025 Y134.738 E12.23402
G1 X417.45 Y135.414 E12.70829
G1 X417.233 Y135.661 E12.88399
G1 X416.353 Y136.455 E13.5174
G1 X415.371 Y137.134 E14.15542
G1 X414.578 Y137.547 E14.63323
G1 X414.281 Y137.694 E14.81033
G1 X413.173 Y138.095 E15.44004
G1 X412.009 Y138.354 E16.0773
G1 X411.114 Y138.44 E16.5578
G1 X410.78 Y138.462 E16.73668
G1 X409.61 Y138.417 E17.3624
G1 X408.436 Y138.218 E17.99874
G1 X407.567 Y137.96 E18.48317
G1 X407.249 Y137.852 E18.66264
G1 X406.189 Y137.372 E19.28448
G1 X405.178 Y136.748 E19.91939
G1 X404.462 Y136.177 E20.4088
G1 X404.21 Y135.955 E20.58827
G1 X403.413 Y135.117 E21.2063
G1 X402.713 Y134.159 E21.84037
G1 X402.26 Y133.354 E22.334
G1 X402.111 Y133.052 E22.51396
G1 X401.692 Y131.982 E23.12805
G1 X401.405 Y130.833 E23.76095
G1 X401.276 Y129.834 E24.29925
G1 X401.276 Y128.46 E25.03352
G1 X401.404 Y127.46 E25.57229
G1 X401.692 Y126.31 E26.20584
G1 X402.129 Y125.193 E26.84683
G1 X402.684 Y124.184 E27.46223
G1 X402.867 Y123.909 E27.63876
G1 X403.422 Y123.165 E28.1348
G1 X404.24 Y122.304 E28.76947
G1 X405.14 Y121.574 E29.38876
G1 X405.412 Y121.392 E29.56366
G1 X406.2 Y120.914 E30.05619
G1 X407.284 Y120.424 E30.69192
G1 X408.431 Y120.074 E31.33279
G1 X409.613 Y119.875 E31.97335
G1 X410.913 Y119.838 E32.66836
G1 X418.061 Y133.627 F7800
G1 F1800
G1 X418.061 Y125.93 E36.78169
G1 X417.67 Y125.124 E37.26043
G1 X417.097 Y124.249 E37.81938
G1 X416.633 Y123.705 E38.20148
G1 X416.633 Y134.589 E44.01796
G1 X416.408 Y134.847 E44.2009
G1 X415.633 Y135.546 E44.75864
G1 X415.204 Y135.842 E45.03718
G1 X415.204 Y122.449 E52.19449
G1 X414.772 Y122.15 E52.47526
G1 X413.776 Y121.646 E53.0718
G1 X413.776 Y136.646 E61.0879
G1 X412.849 Y136.982 E61.61483
G1 X412.348 Y137.093 E61.88906
G1 X412.348 Y121.198 E70.38345
G1 X411.83 Y121.083 E70.66701
G1 X410.92 Y120.998 E71.15544
G1 X410.92 Y137.294 E79.86413
G1 X410.765 Y137.304 E79.94714
G1 X409.729 Y137.264 E80.5012
G1 X409.491 Y137.223 E80.63026
G1 X409.491 Y121.069 E89.26306
G1 X408.697 Y121.203 E89.69338
G1 X408.063 Y121.396 E90.04754
G1 X408.063 Y136.901 E98.33351
G1 X407.675 Y136.775 E98.55152
G1 X406.734 Y136.349 E99.10353
G1 X406.635 Y136.288 E99.16567
G1 X406.635 Y122.003 E106.79967
G1 X405.827 Y122.506 E107.3083
G1 X405.207 Y123.01 E107.7353
G1 X405.207 Y135.291 E114.29835
G1 X405.012 Y135.12 E114.43695
G1 X404.303 Y134.374 E114.98695
G1 X403.779 Y133.656 E115.46197
G1 X403.779 Y123.655 E120.80657
G1 E119.30657 F2700
G92 E0
G1 Z1.5 F7800
G1 X397.152 Y132.112
G1 Z1
G1 E1.5 F2700
;TYPE:Perimeter
;WIDTH:1.5
G1 F1800
G1 X387.284 Y132.112 E6.77352
G1 X387.284 Y126.183 E9.94202
G1 X397.152 Y126.183 E15.21554
G1 X397.152 Y131.962 E18.30387
G1 X398.437 Y133.397 F7800
;TYPE:External perimeter
G1 F1800
G1 X385.998 Y133.397 E24.95135
G1 X385.998 Y124.897 E29.4938
G1 X398.437 Y124.897 E36.14128
G1 X398.437 Y133.247 E40.60357
G1 X397.457 Y133.199 F7800
G1 E39.10357 F2700
G92 E0
G1 Z1.5 F7800
G1 X393.785 Y126.568
G1 Z1
G1 E1.5 F2700
;TYPE:Solid infill
;WIDTH:1.68051
G1 F1800
G1 X396.188 Y128.971 E3.57114
G1 X396.188 Y131.044 E4.83454
G1 X392.29 Y127.147 E8.19379
G1 X390.217 Y127.147 E9.45719
G1 X394.218 Y131.148 E12.90564
G1 X392.145 Y131.148 E14.16904
G1 X388.248 Y127.251 E17.52786
G1 X388.248 Y129.324 E18.79126
G1 X390.65 Y131.726 E20.86154
;LAYER_CHANGE
;Z:2
;HEIGHT:1
G1 Z2 F7800
G1 E19.36154 F2700
G92 E0
G1 Z2.5 F7800
G1 X407.514 Y130.204
G1 Z2
G1 E1.5 F2700
;TYPE:Support material
;WIDTH:1.5
G1 F2880
G1 X407.454 Y130.036 E1.59533
G1 X407.35 Y129.554 E1.85884
G1 X407.329 Y129.236 E2.02915
G1 X407.353 Y128.724 E2.30307
G1 X407.454 Y128.258 E2.55789
G1 X407.605 Y127.834 E2.79842
G1 X407.75 Y127.54 E2.97361
G1 X408.026 Y127.138 E3.2342
G1 X408.325 Y126.807 E3.47257
G1 X408.581 Y126.583 E3.65436
G1 X408.982 Y126.321 E3.91034
G1 X409.362 Y126.139 E4.1355
G1 X409.763 Y126.008 E4.36094
G1 X410.177 Y125.93 E4.58608
G1 X410.715 Y125.912 E4.87375
G1 X410.813 Y124.415 E5.67547
G1 X411.202 Y124.444 E5.88393
G1 X411.831 Y124.574 E6.22718
G1 X412.414 Y124.776 E6.55691
G1 X412.966 Y125.053 E6.88696
G1 X413.481 Y125.401 E7.21912
G1 X413.93 Y125.797 E7.53906
G1 X414.344 Y126.273 E7.87619
G1 X414.686 Y126.79 E8.20746
G1 X414.911 Y127.246 E8.4792
G1 X415.154 Y127.926 E8.8651
G1 X415.273 Y128.532 E9.19514
G1 X415.313 Y129.147 E9.52449
G1 X415.273 Y129.763 E9.85438
G1 X415.152 Y130.374 E10.18724
G1 X414.957 Y130.952 E10.51323
G1 X414.684 Y131.508 E10.84425
G1 X414.336 Y132.032 E11.18041
G1 X413.941 Y132.485 E11.5016
G1 X413.475 Y132.897 E11.83401
G1 X412.948 Y133.253 E12.17388
G1 X412.418 Y133.516 E12.49007
G1 X411.829 Y133.721 E12.82336
G1 X411.199 Y133.851 E13.16713
G1 X410.618 Y133.891 E13.47836
G1 X409.993 Y133.856 E13.81289
G1 X409.355 Y133.735 E14.15992
G1 X408.81 Y133.554 E14.46681
G1 X408.244 Y133.282 E14.8024
G1 X407.694 Y132.924 E15.1531
G1 X407.268 Y132.554 E15.45464
G1 X406.846 Y132.086 E15.7914
G1 X406.47 Y131.54 E16.14568
G1 X406.221 Y131.044 E16.44227
G1 X406.008 Y130.448 E16.78051
G1 X405.867 Y129.794 E17.13804
G1 X405.826 Y129.25 E17.42958
G1 X405.861 Y128.529 E17.81534
G1 X406.008 Y127.846 E18.1887
G1 X406.221 Y127.249 E18.52744
G1 X406.471 Y126.753 E18.82427
G1 X406.847 Y126.207 E19.17855
G1 X407.269 Y125.738 E19.51571
G1 X407.697 Y125.369 E19.81771
G1 X408.246 Y125.011 E20.16797
G1 X408.802 Y124.744 E20.49758
G1 X409.389 Y124.552 E20.82763
G1 X409.995 Y124.438 E21.15716
G1 X410.621 Y124.403 E21.49222
G1 X411.228 Y122.939 F7800
G1 F2880
G1 X411.427 Y122.958 E21.59905
G1 X412.231 Y123.125 E22.03788
G1 X412.998 Y123.391 E22.47172
G1 X413.725 Y123.755 E22.90621
G1 X414.4 Y124.212 E23.34183
G1 X414.856 Y124.612 E23.66599
G1 X415.003 Y124.746 E23.77229
G1 X415.54 Y125.362 E24.20901
G1 X415.989 Y126.04 E24.64359
G1 X416.26 Y126.589 E24.97078
G1 X416.346 Y126.767 E25.07643
G1 X416.606 Y127.54 E25.51227
G1 X416.764 Y128.337 E25.94648
G1 X416.804 Y128.952 E26.27583
G1 X416.816 Y129.147 E26.38024
G1 X416.763 Y129.959 E26.8151
G1 X416.605 Y130.758 E27.25036
G1 X416.544 Y130.941 E27.35345
G1 X416.346 Y131.526 E27.6835
G1 X415.988 Y132.256 E28.118
G1 X415.536 Y132.937 E28.5548
G1 X415.413 Y133.081 E28.65601
G1 X415.006 Y133.545 E28.98585
G1 X414.396 Y134.085 E29.42122
G1 X413.717 Y134.543 E29.85891
G1 X413.552 Y134.63 E29.95859
G1 X412.998 Y134.903 E30.28865
G1 X412.228 Y135.17 E30.72418
G1 X411.423 Y135.336 E31.16343
G1 X411.239 Y135.354 E31.26223
G1 X410.624 Y135.394 E31.59158
G1 X409.81 Y135.348 E32.02728
G1 X409.001 Y135.195 E32.46728
G1 X408.825 Y135.142 E32.56551
G1 X408.243 Y134.945 E32.89387
G1 X407.507 Y134.592 E33.33009
G1 X406.815 Y134.141 E33.77151
G1 X406.671 Y134.026 E33.86999
G1 X406.212 Y133.624 E34.19606
G1 X405.665 Y133.017 E34.63273
G1 X405.196 Y132.335 E35.07506
G1 X405.105 Y132.173 E35.17436
G1 X404.837 Y131.63 E35.49796
G1 X404.562 Y130.86 E35.93491
G1 X404.388 Y130.049 E36.37818
G1 X404.364 Y129.863 E36.4784
G1 X404.324 Y129.263 E36.79976
G1 X404.364 Y128.427 E37.24703
G1 X404.387 Y128.246 E37.34454
G1 X404.562 Y127.434 E37.78844
G1 X404.837 Y126.663 E38.22589
G1 X405.102 Y126.126 E38.54591
G1 X405.197 Y125.958 E38.64905
G1 X405.667 Y125.276 E39.09168
G1 X406.214 Y124.668 E39.52874
G1 X406.665 Y124.273 E39.84913
G1 X406.818 Y124.151 E39.95371
G1 X407.51 Y123.7 E40.39513
G1 X408.243 Y123.349 E40.82944
G1 X409.015 Y123.096 E41.26359
G1 X409.813 Y122.946 E41.69751
G1 X410.628 Y122.9 E42.13374
G1 X411.036 Y122.927 E42.35225
G1 E40.85225 F2700
G92 E0
G1 Z2.5 F7800
G1 X397.152 Y132.112
G1 Z2
G1 E1.5 F2700
;TYPE:Perimeter
;WIDTH:1.5
G1 F1200
G1 X387.284 Y132.112 E6.77352
G1 X387.284 Y126.183 E9.94202
G1 X397.152 Y126.183 E15.21554
G1 X397.152 Y131.962 E18.30387
G1 X398.437 Y133.397 F7800
;TYPE:External perimeter
G1 F1800
G1 X385.998 Y133.397 E24.95135
G1 X385.998 Y124.897 E29.4938
G1 X398.437 Y124.897 E36.14128
G1 X398.437 Y133.247 E40.60357
G1 X397.457 Y133.199 F7800
;LAYER_CHANGE
;Z:3
;HEIGHT:1
G1 Z3 F7800
G1 E39.10357 F2700
G92 E0
G1 Z3.5 F7800
G1 X407.726 Y130.422
G1 Z3
G1 E1.5 F2700
;TYPE:Support material
;WIDTH:1.5
G1 F2735
G1 X407.556 Y129.955 E1.76559
G1 X407.476 Y129.555 E1.98359
G1 X407.449 Y129.148 E2.20157
G1 X407.475 Y128.741 E2.41952
G1 X407.555 Y128.34 E2.63804
G1 X407.685 Y127.954 E2.85571
G1 X407.866 Y127.588 E3.07391
G1 X408.093 Y127.248 E3.29238
G1 X408.361 Y126.941 E3.51016
G1 X408.668 Y126.672 E3.72829
G1 X409.008 Y126.445 E3.94676
G1 X409.374 Y126.264 E4.16496
G1 X409.76 Y126.133 E4.3828
G1 X410.161 Y126.053 E4.60132
G1 X410.663 Y126.032 E4.86983
G1 X410.761 Y124.535 E5.67155
G1 X411.172 Y124.562 E5.89166
G1 X411.766 Y124.68 E6.2153
G1 X412.339 Y124.875 E6.53876
G1 X412.881 Y125.143 E6.86188
G1 X413.384 Y125.479 E7.18514
G1 X413.839 Y125.878 E7.50854
G1 X414.238 Y126.333 E7.83194
G1 X414.574 Y126.837 E8.15565
G1 X414.841 Y127.379 E8.47854
G1 X415.035 Y127.952 E8.80183
G1 X415.153 Y128.546 E9.12547
G1 X415.173 Y128.857 E9.29201
G1 X415.192 Y129.149 E9.44839
G1 X415.152 Y129.752 E9.77135
G1 X415.033 Y130.346 E10.09509
G1 X414.839 Y130.918 E10.41787
G1 X414.571 Y131.46 E10.74099
G1 X414.235 Y131.962 E11.06381
G1 X413.836 Y132.417 E11.38721
G1 X413.381 Y132.815 E11.71026
G1 X412.879 Y133.151 E12.03308
G1 X412.337 Y133.418 E12.35597
G1 X411.764 Y133.612 E12.67926
G1 X411.171 Y133.73 E13.00238
G1 X410.568 Y133.769 E13.3253
G1 X409.965 Y133.729 E13.64826
G1 X409.373 Y133.612 E13.97075
G1 X408.8 Y133.417 E14.29421
G1 X408.258 Y133.15 E14.6171
G1 X407.755 Y132.815 E14.94007
G1 X407.301 Y132.416 E15.26307
G1 X406.902 Y131.962 E15.58607
G1 X406.566 Y131.459 E15.90933
G1 X406.299 Y130.918 E16.23174
G1 X406.104 Y130.345 E16.5552
G1 X405.985 Y129.752 E16.87842
G1 X405.946 Y129.149 E17.20134
G1 X405.985 Y128.546 E17.52426
G1 X406.102 Y127.952 E17.8478
G1 X406.296 Y127.38 E18.17058
G1 X406.564 Y126.837 E18.49418
G1 X406.899 Y126.333 E18.81759
G1 X407.298 Y125.879 E19.14059
G1 X407.753 Y125.479 E19.46435
G1 X408.256 Y125.143 E19.78761
G1 X408.798 Y124.875 E20.11073
G1 X409.371 Y124.681 E20.43402
G1 X409.965 Y124.562 E20.75776
G1 X410.568 Y124.523 E21.08068
G1 X410.997 Y123.048 F7800
G1 F2735
G1 X411.368 Y123.072 E21.27936
G1 X412.155 Y123.228 E21.70812
G1 X412.914 Y123.486 E22.13653
G1 X413.633 Y123.841 E22.56505
G1 X414.3 Y124.287 E22.99384
G1 X414.902 Y124.816 E23.42211
G1 X415.431 Y125.419 E23.85079
G1 X415.876 Y126.086 E24.27929
G1 X416.23 Y126.805 E24.70758
G1 X416.487 Y127.564 E25.13582
G1 X416.643 Y128.35 E25.56406
G1 X416.695 Y129.15 E25.99249
G1 X416.642 Y129.95 E26.42095
G1 X416.485 Y130.735 E26.84877
G1 X416.227 Y131.494 E27.27718
G1 X415.872 Y132.212 E27.70522
G1 X415.427 Y132.878 E28.13327
G1 X414.898 Y133.48 E28.56154
G1 X414.296 Y134.008 E28.98946
G1 X413.63 Y134.453 E29.41751
G1 X412.911 Y134.807 E29.8458
G1 X412.153 Y135.064 E30.27353
G1 X411.367 Y135.22 E30.70177
G1 X410.568 Y135.272 E31.12966
G1 X409.769 Y135.22 E31.55755
G1 X408.984 Y135.064 E31.98526
G1 X408.225 Y134.806 E32.41367
G1 X407.507 Y134.452 E32.84148
G1 X406.841 Y134.008 E33.26924
G1 X406.239 Y133.48 E33.69716
G1 X405.71 Y132.878 E34.12543
G1 X405.265 Y132.212 E34.55348
G1 X404.91 Y131.494 E34.98152
G1 X404.652 Y130.735 E35.40993
G1 X404.495 Y129.949 E35.83827
G1 X404.442 Y129.15 E36.2662
G1 X404.494 Y128.35 E36.69463
G1 X404.65 Y127.564 E37.12287
G1 X404.907 Y126.805 E37.55111
G1 X405.261 Y126.086 E37.9794
G1 X405.706 Y125.419 E38.4079
G1 X406.234 Y124.816 E38.83622
G1 X406.837 Y124.287 E39.2649
G1 X407.503 Y123.842 E39.69295
G1 X408.222 Y123.487 E40.12147
G1 X408.982 Y123.229 E40.55038
G1 X409.768 Y123.072 E40.97872
G1 X410.568 Y123.02 E41.40715
G1 X410.805 Y123.035 E41.53406
G1 E40.03406 F2700
G92 E0
G1 Z3.5 F7800
G1 X397.152 Y132.112
G1 Z3
G1 E1.5 F2700
;TYPE:Perimeter
;WIDTH:1.5
G1 F1200
G1 X387.284 Y132.112 E6.77352
G1 X387.284 Y126.183 E9.94202
G1 X397.152 Y126.183 E15.21554
G1 X397.152 Y131.962 E18.30387
G1 X398.437 Y133.397 F7800
;TYPE:External perimeter
G1 F1800
G1 X385.998 Y133.397 E24.95135
G1 X385.998 Y124.897 E29.4938
G1 X398.437 Y124.897 E36.14128
G1 X398.437 Y133.247 E40.60357
G1 X397.457 Y133.199 F7800
M106 S252.45
;LAYER_CHANGE
;Z:4
;HEIGHT:1
G1 Z4 F7800
G1 E39.10357 F2700
G92 E0
G1 Z4.5 F7800
G1 X408.05 Y130.672
G1 Z4
G1 E1.5 F2700
;TYPE:Support material
;WIDTH:1.5
G1 F2655
G1 X407.756 Y130.024 E1.88027
G1 X407.665 Y129.643 E2.08961
G1 X407.625 Y129.253 E2.29912
G1 X407.637 Y128.861 E2.50871
G1 X407.701 Y128.475 E2.71781
G1 X407.815 Y128.1 E2.92727
G1 X407.888 Y127.928 E3.02712
G1 X408.19 Y127.418 E3.34387
G1 X408.471 Y127.081 E3.57836
G1 X408.69 Y126.881 E3.73686
G1 X409.045 Y126.632 E3.96859
G1 X409.427 Y126.434 E4.19853
G1 X409.722 Y126.328 E4.36605
G1 X410.137 Y126.238 E4.59298
G1 X410.664 Y126.207 E4.8751
G1 X410.713 Y124.708 E5.6766
G1 X411.072 Y124.73 E5.86881
G1 X411.666 Y124.84 E6.19164
G1 X412.225 Y125.022 E6.50581
G1 X412.766 Y125.282 E6.82658
G1 X413.238 Y125.591 E7.12807
G1 X413.691 Y125.982 E7.44786
G1 X414.086 Y126.427 E7.76584
G1 X414.407 Y126.902 E8.07221
G1 X414.672 Y127.434 E8.38983
G1 X414.863 Y127.992 E8.70501
G1 X414.977 Y128.564 E9.0167
G1 X415.015 Y129.153 E9.33212
G1 X414.976 Y129.742 E9.64757
G1 X414.86 Y130.313 E9.95895
G1 X414.668 Y130.871 E10.27431
G1 X414.401 Y131.404 E10.59289
G1 X414.079 Y131.878 E10.89912
G1 X413.683 Y132.322 E11.21706
G1 X413.227 Y132.713 E11.53807
G1 X412.754 Y133.021 E11.83971
G1 X412.213 Y133.279 E12.16002
G1 X411.637 Y133.465 E12.48349
G1 X411.091 Y133.564 E12.78003
G1 X410.489 Y133.593 E13.10212
G1 X409.881 Y133.542 E13.42818
G1 X409.348 Y133.424 E13.71992
G1 X408.778 Y133.217 E14.044
G1 X408.233 Y132.932 E14.37267
G1 X407.795 Y132.624 E14.65882
G1 X407.347 Y132.21 E14.98481
G1 X406.951 Y131.734 E15.31571
G1 X406.672 Y131.289 E15.5964
G1 X406.401 Y130.698 E15.94386
G1 X406.322 Y130.465 E16.07534
G1 X406.185 Y129.891 E16.39071
G1 X406.125 Y129.304 E16.70604
G1 X406.143 Y128.714 E17.02149
G1 X406.239 Y128.131 E17.33724
G1 X406.412 Y127.567 E17.65251
G1 X406.643 Y127.06 E17.95025
G1 X406.974 Y126.535 E18.28192
G1 X407.369 Y126.06 E18.61206
G1 X407.762 Y125.699 E18.89724
G1 X408.265 Y125.346 E19.22564
G1 X408.809 Y125.064 E19.5531
G1 X409.32 Y124.88 E19.84335
G1 X409.915 Y124.751 E20.16871
G1 X410.521 Y124.701 E20.49366
G1 X410.835 Y123.211 F7800
G1 F2655
G1 X411.258 Y123.239 E20.72021
G1 X412.037 Y123.383 E21.14357
G1 X412.784 Y123.627 E21.56353
G1 X413.497 Y123.969 E21.98613
G1 X413.797 Y124.16 E22.17619
G1 X414.148 Y124.395 E22.40193
G1 X414.746 Y124.912 E22.82438
G1 X415.27 Y125.501 E23.24568
G1 X415.477 Y125.803 E23.44134
G1 X415.707 Y126.149 E23.66337
