; generated by PrusaSlicer 2.6.1+win64 on 2024-02-15 at 03:19:35 UTC

; 

; external perimeters extrusion width = 1.50mm
; perimeters extrusion width = 1.50mm
; infill extrusion width = 1.50mm
; solid infill extrusion width = 1.50mm
; top infill extrusion width = 1.50mm
; support material extrusion width = 1.50mm
; first layer extrusion width = 1.50mm

; external perimeters extrusion width = 1.50mm
; perimeters extrusion width = 1.50mm
; infill extrusion width = 1.50mm
; solid infill extrusion width = 1.50mm
; top infill extrusion width = 1.50mm
; support material extrusion width = 1.50mm
; first layer extrusion width = 1.50mm

; external perimeters extrusion width = 1.50mm
; perimeters extrusion width = 1.50mm
; infill extrusion width = 1.50mm
; solid infill extrusion width = 1.50mm
; top infill extrusion width = 1.50mm
; support material extrusion width = 1.50mm
; first layer extrusion width = 1.50mm

; external perimeters extrusion width = 1.50mm
; perimeters extrusion width = 1.50mm
; infill extrusion width = 1.50mm
; solid infill extrusion width = 1.50mm
; top infill extrusion width = 1.50mm
; support material extrusion width = 1.50mm
; first layer extrusion width = 1.50mm

; external perimeters extrusion width = 1.50mm
; perimeters extrusion width = 1.50mm
; infill extrusion width = 1.50mm
; solid infill extrusion width = 1.50mm
; top infill extrusion width = 1.50mm
; support material extrusion width = 1.50mm
; first layer extrusion width = 1.50mm

; external perimeters extrusion width = 1.50mm
; perimeters extrusion width = 1.50mm
; infill extrusion width = 1.50mm
; solid infill extrusion width = 1.50mm
; top infill extrusion width = 1.50mm
; support material extrusion width = 1.50mm
; first layer extrusion width = 1.50mm

; external perimeters extrusion width = 1.50mm
; perimeters extrusion width = 1.50mm
; infill extrusion width = 1.50mm
; solid infill extrusion width = 1.50mm
; top infill extrusion width = 1.50mm
; support material extrusion width = 1.50mm
; first layer extrusion width = 1.50mm

; external perimeters extrusion width = 1.50mm
; perimeters extrusion width = 1.50mm
; infill extrusion width = 1.50mm
; solid infill extrusion width = 1.50mm
; top infill extrusion width = 1.50mm
; support material extrusion width = 1.50mm
; first layer extrusion width = 1.50mm

; external perimeters extrusion width = 1.50mm
; perimeters extrusion width = 1.50mm
; infill extrusion width = 1.50mm
; solid infill extrusion width = 1.50mm
; top infill extrusion width = 1.50mm
; support material extrusion width = 1.50mm
; first layer extrusion width = 1.50mm

;TYPE:Custom
;
;Start G-code Beginning

G28 ;Home all axes
G1 Z5 F5000 ;Lift nozzle

M140 P0 S60 ;Heat Bed 0
M140 P1 S60 ;Heat Bed 1
M116 ;Wait heaters to stabilize
M117 "Bed 0 & 1 at temp 50c"

T0 ;Make current tool active
G10 S210 P0 ;Heat Hot End

M116 
;Wait heaters to stabilize


M117 "Hot End at temp 210c"

G1 E20 F60 ;Prime the extruder
M117 "Extruder Primed"

;Start G-code Finish
;
G21 ; set units to millimeters
G90 ; use absolute coordinates
M82 ; use absolute distances for extrusion
G92 E0
; Filament gcode
M107
;LAYER_CHANGE
;Z:1
;HEIGHT:1
G1 Z1 F7800
G1 E-1.5 F2700
G92 E0
G1 Z1.5 F7800
G1 X407.935 Y126.344
G1 Z1
G1 E1.5 F2700
;TYPE:External perimeter
;WIDTH:1.6073
G1 F1800
G1 X404.94 Y126.344 E3.23416
G1 X404.94 Y124.951 E4.04073
G1 X407.935 Y124.951 E5.77489
G1 X407.935 Y126.194 E6.49461
G1 X406.946 Y126.199 F7800
G1 E4.99461 F2700
G92 E0
G1 Z1.5 F7800
G1 X382.235 Y124.951
G1 Z1
G1 E1.5 F2700
G1 F1800
G1 X387.467 Y124.951 E4.52942
G1 X387.467 Y126.344 E5.33599
G1 X382.235 Y126.344 E8.36541
G1 X382.235 Y125.101 E9.08513
G1 X383.232 Y125.038 F7800
G1 E7.58513 F2700
G92 E0
G1 Z1.5 F7800
G1 X356.723 Y126.344
G1 Z1
G1 E1.5 F2700
G1 F1800
G1 X356.723 Y124.951 E2.30657
G1 X361.811 Y124.951 E5.25261
G1 X361.811 Y126.344 E6.05918
G1 X356.873 Y126.344 E8.91837
G1 X357.144 Y125.437 F7800
G1 E7.41837 F2700
G92 E0
G1 Z1.5 F7800
G1 X335.778 Y126.344
G1 Z1
G1 E1.5 F2700
G1 F1800
G1 X335.778 Y124.951 E2.30657
G1 X338.753 Y124.951 E4.02915
G1 X338.753 Y126.344 E4.83572
G1 X335.928 Y126.344 E6.47144
G1 X336.147 Y125.414 F7800
G1 E4.97144 F2700
G92 E0
G1 Z1.5 F7800
G1 X320.785 Y126.344
G1 Z1
G1 E1.5 F2700
G1 F1800
G1 X317.81 Y126.344 E3.22258
G1 X317.81 Y124.951 E4.02915
G1 X320.785 Y124.951 E5.75173
G1 X320.785 Y126.194 E6.47145
G1 X319.795 Y126.198 F7800
G1 E4.97145 F2700
G92 E0
G1 Z1.5 F7800
G1 X299.65 Y126.344
G1 Z1
G1 E1.5 F2700
G1 F1800
G1 X293.946 Y126.344 E4.80271
G1 X293.946 Y124.951 E5.60928
G1 X299.65 Y124.951 E8.91199
G1 X299.65 Y126.194 E9.63171
G1 X298.653 Y126.264 F7800
G1 E8.13171 F2700
G92 E0
G1 Z1.5 F7800
G1 X257.892 Y126.344
G1 Z1
G1 E1.5 F2700
G1 F1800
G1 X255.327 Y126.344 E2.98518
G1 X255.327 Y124.951 E3.79175
G1 X257.892 Y124.951 E5.27693
G1 X257.892 Y126.194 E5.99665
G1 X256.905 Y126.179 F7800
G1 E4.49665 F2700
G92 E0
G1 Z1.5 F7800
G1 X250.636 Y126.344
G1 Z1
G1 E1.5 F2700
G1 F1800
G1 X248.204 Y126.344 E2.90817
G1 X248.204 Y124.951 E3.71474
G1 X250.636 Y124.951 E5.12291
G1 X250.636 Y126.194 E5.84263
G1 X249.651 Y126.171 F7800
G1 E4.34263 F2700
G92 E0
G1 Z1.5 F7800
G1 X243.523 Y126.344
G1 Z1
G1 E1.5 F2700
G1 F1800
G1 X240.958 Y126.344 E2.98518
G1 X240.958 Y124.951 E3.79175
G1 X243.523 Y124.951 E5.27693
G1 X243.523 Y126.194 E5.99665
G1 X242.537 Y126.179 F7800
G1 E4.49665 F2700
G92 E0
G1 Z1.5 F7800
G1 X212.866 Y126.344
G1 Z1
G1 E1.5 F2700
G1 F1800
G1 X212.866 Y124.951 E2.30657
G1 X222.042 Y124.951 E7.61963
G1 X222.042 Y126.344 E8.4262
G1 X213.016 Y126.344 E13.65241
G1 X213.322 Y125.454 F7800
G1 E12.15241 F2700
G92 E0
G1 Z1.5 F7800
G1 X190.673 Y126.344
G1 Z1
G1 E1.5 F2700
G1 F1800
G1 X187.167 Y126.344 E3.53003
G1 X187.167 Y124.951 E4.3366
G1 X190.673 Y124.951 E6.36663
G1 X190.673 Y126.194 E7.08635
G1 X189.681 Y126.218 F7800
;LAYER_CHANGE
;Z:2
;HEIGHT:1
G1 Z2 F7800
G1 E5.58635 F2700
G92 E0
G1 Z2.5 F7800
G1 X407.935 Y126.344
G1 Z2
G1 E1.5 F2700
G1 F1200
G1 X404.94 Y126.344 E3.23416
G1 X404.94 Y124.951 E4.04073
G1 X407.935 Y124.951 E5.77489
G1 X407.935 Y126.194 E6.49461
G1 X406.946 Y126.199 F7800
G1 E4.99461 F2700
G92 E0
G1 Z2.5 F7800
G1 X380.932 Y124.951
G1 Z2
G1 E1.5 F2700
G1 F1200
G1 X388.77 Y124.951 E6.03833
;TYPE:Overhang perimeter
;WIDTH:1
G1 X389.144 Y124.951 E6.16045
G1 X389.144 Y125.647 E6.38772
G1 X389.144 Y126.344 E6.61531
G1 X388.77 Y126.344 E6.73743
;TYPE:External perimeter
;WIDTH:1.6073
G1 X380.932 Y126.344 E11.27576
;TYPE:Overhang perimeter
;WIDTH:1
G1 X380.617 Y126.344 E11.37862
G1 X380.617 Y124.951 E11.83348
G1 X380.782 Y124.951 E11.88736
G1 X381.758 Y125.514 F7800
G1 E10.38736 F2700
G92 E0
G1 Z2.5 F7800
G1 X355.42 Y126.344
G1 Z2
G1 E1.5 F2700
G1 F1200
G1 X354.978 Y126.344 E1.64433
G1 X354.978 Y124.951 E2.09919
G1 X355.42 Y124.951 E2.24352
;TYPE:External perimeter
;WIDTH:1.6073
G1 X363.115 Y124.951 E6.69906
;TYPE:Overhang perimeter
;WIDTH:1
G1 X363.455 Y124.951 E6.81008
G1 X363.455 Y125.647 E7.03735
G1 X363.455 Y126.344 E7.26494
G1 X363.115 Y126.344 E7.37596
;TYPE:External perimeter
;WIDTH:1.6073
G1 X355.57 Y126.344 E11.74464
G1 E10.24464 F2700
G92 E0
G1 Z2.5 F7800
G1 X335.778 Y126.344
G1 Z2
G1 E1.5 F2700
G1 F1200
G1 X335.778 Y124.951 E2.30657
G1 X338.753 Y124.951 E4.02915
G1 X338.753 Y126.344 E4.83572
G1 X335.928 Y126.344 E6.47144
G1 X336.147 Y125.414 F7800
G1 E4.97144 F2700
G92 E0
G1 Z2.5 F7800
G1 X320.785 Y126.344
G1 Z2
G1 E1.5 F2700
G1 F1200
G1 X317.81 Y126.344 E3.22258
G1 X317.81 Y124.951 E4.02915
G1 X320.785 Y124.951 E5.75173
G1 X320.785 Y126.194 E6.47145
G1 X319.795 Y126.198 F7800
G1 E4.97145 F2700
G92 E0
G1 Z2.5 F7800
G1 X300.953 Y126.344
G1 Z2
G1 E1.5 F2700
;WIDTH:1.6073
G1 F1200
G1 X292.642 Y126.344 E6.31221
;TYPE:Overhang perimeter
;WIDTH:1
G1 X292.103 Y126.344 E6.48821
G1 X292.103 Y124.951 E6.94307
G1 X292.642 Y124.951 E7.11907
;TYPE:External perimeter
;WIDTH:1.6073
G1 X300.953 Y124.951 E11.93128
;TYPE:Overhang perimeter
;WIDTH:1
G1 X301.495 Y124.951 E12.10826
G1 X301.495 Y125.647 E12.33553
G1 X301.495 Y126.344 E12.56312
G1 X301.103 Y126.344 E12.69112
G1 X300.218 Y125.666 F7800
G1 E11.19112 F2700
G92 E0
G1 Z2.5 F7800
G1 X243.523 Y126.344
G1 Z2
G1 E1.5 F2700
;TYPE:External perimeter
;WIDTH:1.6073
G1 F1200
G1 X240.958 Y126.344 E2.98518
G1 X240.958 Y124.951 E3.79175
G1 X243.523 Y124.951 E5.27693
G1 X243.523 Y126.194 E5.99665
G1 X242.537 Y126.179 F7800
G1 E4.49665 F2700
G92 E0
G1 Z2.5 F7800
G1 X250.891 Y126.344
G1 Z2
G1 E1.5 F2700
G1 F1200
G1 X247.95 Y126.344 E3.20289
G1 X247.95 Y124.951 E4.00946
G1 X250.891 Y124.951 E5.71235
G1 X250.891 Y126.194 E6.43207
G1 X249.902 Y126.197 F7800
G1 E4.93207 F2700
G92 E0
G1 Z2.5 F7800
G1 X257.892 Y126.344
G1 Z2
G1 E1.5 F2700
G1 F1200
G1 X255.327 Y126.344 E2.98518
G1 X255.327 Y124.951 E3.79175
G1 X257.892 Y124.951 E5.27693
G1 X257.892 Y126.194 E5.99665
G1 X256.905 Y126.179 F7800
G1 E4.49665 F2700
G92 E0
G1 Z2.5 F7800
G1 X212.866 Y126.344
G1 Z2
G1 E1.5 F2700
G1 F1200
G1 X212.866 Y124.951 E2.30657
G1 X223.346 Y124.951 E8.37467
;TYPE:Overhang perimeter
;WIDTH:1
G1 X223.84 Y124.951 E8.53598
G1 X223.84 Y125.647 E8.76325
G1 X223.84 Y126.344 E8.99084
G1 X223.346 Y126.344 E9.15215
;TYPE:External perimeter
;WIDTH:1.6073
G1 X213.016 Y126.344 E15.1334
G1 E13.6334 F2700
G92 E0
G1 Z2.5 F7800
G1 X190.673 Y126.344
G1 Z2
G1 E1.5 F2700
G1 F1200
G1 X187.167 Y126.344 E3.53003
G1 X187.167 Y124.951 E4.3366
G1 X190.673 Y124.951 E6.36663
G1 X190.673 Y126.194 E7.08635
G1 X189.681 Y126.218 F7800
;LAYER_CHANGE
;Z:3
;HEIGHT:1
G1 Z3 F7800
G1 E5.58635 F2700
G92 E0
G1 Z3.5 F7800
G1 X407.935 Y126.344
G1 Z3
G1 E1.5 F2700
G1 F1200
G1 X404.94 Y126.344 E3.23416
G1 X404.94 Y124.951 E4.04073
G1 X407.935 Y124.951 E5.77489
G1 X407.935 Y126.194 E6.49461
G1 X406.946 Y126.199 F7800
G1 E4.99461 F2700
G92 E0
G1 Z3.5 F7800
G1 X379.758 Y126.344
G1 Z3
G1 E1.5 F2700
G1 F1200
G1 X379.758 Y124.951 E2.30657
G1 X390.056 Y124.951 E8.26929
G1 X390.056 Y126.344 E9.07586
G1 X379.908 Y126.344 E14.95172
G1 X380.219 Y125.456 F7800
G1 E13.45172 F2700
G92 E0
G1 Z3.5 F7800
G1 X354.08 Y126.344
G1 Z3
G1 E1.5 F2700
G1 F1200
G1 X354.08 Y124.951 E2.30657
G1 X364.327 Y124.951 E8.23976
G1 X364.327 Y126.344 E9.04633
G1 X354.23 Y126.344 E14.89266
G1 X354.54 Y125.456 F7800
G1 E13.39266 F2700
G92 E0
G1 Z3.5 F7800
G1 X335.778 Y126.344
G1 Z3
G1 E1.5 F2700
G1 F1200
G1 X335.778 Y124.951 E2.30657
G1 X338.753 Y124.951 E4.02915
G1 X338.753 Y126.344 E4.83572
G1 X335.928 Y126.344 E6.47144
G1 X336.147 Y125.414 F7800
G1 E4.97144 F2700
G92 E0
G1 Z3.5 F7800
G1 X320.785 Y126.344
G1 Z3
G1 E1.5 F2700
G1 F1200
G1 X317.81 Y126.344 E3.22258
G1 X317.81 Y124.951 E4.02915
G1 X320.785 Y124.951 E5.75173
G1 X320.785 Y126.194 E6.47145
G1 X319.795 Y126.198 F7800
G1 E4.97145 F2700
G92 E0
G1 Z3.5 F7800
G1 X302.45 Y126.344
G1 Z3
G1 E1.5 F2700
G1 F1200
G1 X291.241 Y126.344 E7.9902
G1 X291.241 Y124.951 E8.79677
G1 X302.45 Y124.951 E15.28697
G1 X302.45 Y126.194 E16.00669
G1 X301.451 Y126.303 F7800
G1 E14.50669 F2700
G92 E0
G1 Z3.5 F7800
G1 X243.523 Y126.344
G1 Z3
G1 E1.5 F2700
G1 F1200
G1 X240.958 Y126.344 E2.98518
G1 X240.958 Y124.951 E3.79175
G1 X243.523 Y124.951 E5.27693
G1 X243.523 Y126.194 E5.99665
G1 X242.537 Y126.179 F7800
G1 E4.49665 F2700
G92 E0
G1 Z3.5 F7800
G1 X251.146 Y126.344
G1 Z3
G1 E1.5 F2700
G1 F1200
G1 X247.695 Y126.344 E3.49819
G1 X247.695 Y124.951 E4.30476
G1 X251.146 Y124.951 E6.30295
G1 X251.146 Y126.194 E7.02267
G1 X250.154 Y126.216 F7800
G1 E5.52267 F2700
G92 E0
G1 Z3.5 F7800
G1 X257.892 Y126.344
G1 Z3
G1 E1.5 F2700
G1 F1200
G1 X255.327 Y126.344 E2.98518
G1 X255.327 Y124.951 E3.79175
G1 X257.892 Y124.951 E5.27693
G1 X257.892 Y126.194 E5.99665
G1 X256.905 Y126.179 F7800
G1 E4.49665 F2700
G92 E0
G1 Z3.5 F7800
G1 X212.866 Y126.344
G1 Z3
G1 E1.5 F2700
G1 F1200
G1 X212.866 Y124.951 E2.30657
G1 X224.834 Y124.951 E9.23624
G1 X224.834 Y126.344 E10.04281
G1 X213.016 Y126.344 E16.88563
G1 X213.332 Y125.459 F7800
G1 E15.38563 F2700
G92 E0
G1 Z3.5 F7800
G1 X190.673 Y126.344
G1 Z3
G1 E1.5 F2700
G1 F1200
G1 X187.167 Y126.344 E3.53003
G1 X187.167 Y124.951 E4.3366
G1 X190.673 Y124.951 E6.36663
G1 X190.673 Y126.194 E7.08635
G1 X189.681 Y126.218 F7800
M106 S239.7
;LAYER_CHANGE
;Z:4
;HEIGHT:1
G1 Z4 F7800
G1 E5.58635 F2700
G92 E0
G1 Z4.5 F7800
G1 X407.935 Y126.344
G1 Z4
G1 E1.5 F2700
G1 F1200
G1 X404.94 Y126.344 E3.23416
G1 X404.94 Y124.951 E4.04073
G1 X407.935 Y124.951 E5.77489
G1 X407.935 Y126.194 E6.49461
G1 X406.946 Y126.199 F7800
G1 E4.99461 F2700
G92 E0
G1 Z4.5 F7800
G1 X382.282 Y126.344
G1 Z4
G1 E1.5 F2700
G1 F1200
G1 X379.2 Y126.344 E3.28453
G1 X379.2 Y124.951 E4.0911
G1 X382.282 Y124.951 E5.87563
G1 X382.282 Y126.194 E6.59535
G1 X381.292 Y126.203 F7800
G1 E5.09535 F2700
G92 E0
G1 Z4.5 F7800
G1 X389.175 Y126.344
G1 Z4
G1 E1.5 F2700
G1 F1200
G1 X387.479 Y126.344 E2.48201
G1 X387.479 Y124.951 E3.28858
G1 X389.175 Y124.951 E4.27059
G1 X389.175 Y126.194 E4.99031
G1 X388.201 Y126.117 F7800
G1 E3.49031 F2700
G92 E0
G1 Z4.5 F7800
G1 X353.49 Y126.344
G1 Z4
G1 E1.5 F2700
G1 F1200
G1 X353.49 Y124.951 E2.30657
G1 X357.101 Y124.951 E4.3974
G1 X357.101 Y126.344 E5.20397
G1 X353.64 Y126.344 E7.20795
G1 X353.881 Y125.423 F7800
G1 E5.70795 F2700
G92 E0
G1 Z4.5 F7800
G1 X364.89 Y126.344
G1 Z4
G1 E1.5 F2700
G1 F1200
G1 X361.512 Y126.344 E3.45592
G1 X361.512 Y124.951 E4.26249
G1 X364.89 Y124.951 E6.21841
G1 X364.89 Y126.194 E6.93813
G1 X363.899 Y126.214 F7800
G1 E5.43813 F2700
G92 E0
G1 Z4.5 F7800
G1 X335.778 Y126.344
G1 Z4
G1 E1.5 F2700
G1 F1200
G1 X335.778 Y124.951 E2.30657
G1 X338.753 Y124.951 E4.02915
G1 X338.753 Y126.344 E4.83572
G1 X335.928 Y126.344 E6.47144
G1 X336.147 Y125.414 F7800
G1 E4.97144 F2700
G92 E0
G1 Z4.5 F7800
G1 X320.785 Y126.344
G1 Z4
G1 E1.5 F2700
G1 F1200
G1 X317.81 Y126.344 E3.22258
G1 X317.81 Y124.951 E4.02915
G1 X320.785 Y124.951 E5.75173
G1 X320.785 Y126.194 E6.47145
G1 X319.795 Y126.198 F7800
G1 E4.97145 F2700
G92 E0
G1 Z4.5 F7800
G1 X294.958 Y126.344
G1 Z4
G1 E1.5 F2700
G1 F1200
G1 X290.683 Y126.344 E3.9753
G1 X290.683 Y124.951 E4.78187
G1 X294.958 Y124.951 E7.25717
G1 X294.958 Y126.194 E7.97689
G1 X293.963 Y126.239 F7800
G1 E6.47689 F2700
G92 E0
G1 Z4.5 F7800
G1 X303.03 Y126.344
G1 Z4
G1 E1.5 F2700
G1 F1200
G1 X299.156 Y126.344 E3.74311
G1 X299.156 Y124.951 E4.54968
G1 X303.03 Y124.951 E6.79279
G1 X303.03 Y126.194 E7.51251
G1 X302.037 Y126.229 F7800
G1 E6.01251 F2700
G92 E0
G1 Z4.5 F7800
G1 X243.523 Y126.344
G1 Z4
G1 E1.5 F2700
G1 F1200
G1 X240.958 Y126.344 E2.98518
G1 X240.958 Y124.951 E3.79175
G1 X243.523 Y124.951 E5.27693
G1 X243.523 Y126.194 E5.99665
G1 X242.537 Y126.179 F7800
G1 E4.49665 F2700
G92 E0
G1 Z4.5 F7800
G1 X251.402 Y126.344
G1 Z4
G1 E1.5 F2700
G1 F1200
G1 X247.441 Y126.344 E3.79349
G1 X247.441 Y124.951 E4.60006
G1 X251.402 Y124.951 E6.89355
G1 X251.402 Y126.194 E7.61327
G1 X250.408 Y126.231 F7800
G1 E6.11327 F2700
G92 E0
G1 Z4.5 F7800
G1 X257.892 Y126.344
G1 Z4
G1 E1.5 F2700
G1 F1200
G1 X255.327 Y126.344 E2.98518
G1 X255.327 Y124.951 E3.79175
G1 X257.892 Y124.951 E5.27693
G1 X257.892 Y126.194 E5.99665
G1 X256.905 Y126.179 F7800
G1 E4.49665 F2700
G92 E0
G1 Z4.5 F7800
G1 X212.866 Y126.344
G1 Z4
G1 E1.5 F2700
G1 F1200
G1 X212.866 Y124.951 E2.30657
G1 X225.505 Y124.951 E9.62477
G1 X225.505 Y126.344 E10.43134
G1 X213.016 Y126.344 E17.66268
G1 X213.334 Y125.46 F7800
G1 E16.16268 F2700
G92 E0
G1 Z4.5 F7800
G1 X190.673 Y126.344
G1 Z4
G1 E1.5 F2700
G1 F1200
G1 X187.167 Y126.344 E3.53003
G1 X187.167 Y124.951 E4.3366
G1 X190.673 Y124.951 E6.36663
G1 X190.673 Y126.194 E7.08635
G1 X189.681 Y126.218 F7800
M106 S242.25
;LAYER_CHANGE
;Z:5
;HEIGHT:1
G1 Z5 F7800
G1 E5.58635 F2700
G92 E0
G1 Z5.5 F7800
G1 X407.938 Y126.344
G1 Z5
G1 E1.5 F2700
G1 F1200
G1 X404.94 Y126.344 E3.23589
G1 X404.94 Y124.951 E4.04246
G1 X407.938 Y124.951 E5.77835
G1 X407.938 Y126.194 E6.49807
G1 X406.948 Y126.199 F7800
G1 E4.99807 F2700
G92 E0
G1 Z5.5 F7800
G1 X381.822 Y126.344
G1 Z5
G1 E1.5 F2700
G1 F1200
G1 X378.858 Y126.344 E3.21621
G1 X378.858 Y124.951 E4.02278
G1 X381.822 Y124.951 E5.73899
G1 X381.822 Y126.194 E6.45871
G1 X380.833 Y126.198 F7800
G1 E4.95871 F2700
G92 E0
G1 Z5.5 F7800
G1 X364.871 Y126.344
G1 Z5
G1 E1.5 F2700
G1 F1200
G1 X362.283 Y126.344 E2.9985
