; generated by PrusaSlicer 2.6.1+win64 on 2024-02-15 at 03:22:44 UTC

; 

; external perimeters extrusion width = 1.50mm
; perimeters extrusion width = 1.50mm
; infill extrusion width = 1.50mm
; solid infill extrusion width = 1.50mm
; top infill extrusion width = 1.50mm
; support material extrusion width = 1.50mm
; first layer extrusion width = 1.50mm

;TYPE:Custom
;
;Start G-code Beginning

G28 ;Home all axes
G1 Z5 F5000 ;Lift nozzle

M140 P0 S60 ;Heat Bed 0
M140 P1 S60 ;Heat Bed 1
M116 ;Wait heaters to stabilize
M117 "Bed 0 & 1 at temp 50c"

T0 ;Make current tool active
G10 S210 P0 ;Heat Hot End

M116 
;Wait heaters to stabilize


M117 "Hot End at temp 210c"

G1 E20 F60 ;Prime the extruder
M117 "Extruder Primed"

;Start G-code Finish
;
G21 ; set units to millimeters
G90 ; use absolute coordinates
M82 ; use absolute distances for extrusion
G92 E0
; Filament gcode
M107
;LAYER_CHANGE
;Z:1
;HEIGHT:1
G1 Z1 F7800
G1 E-1.5 F2700
G92 E0
G1 Z1.5 F7800
G1 X208.336 Y173.807
G1 Z1
G1 E1.5 F2700
;TYPE:Perimeter
;WIDTH:1.5
G1 F1800
G1 X207.085 Y173.768 E2.16887
G1 X204.843 Y173.61 E3.36998
G1 X202.822 Y173.36 E4.45825
G1 X201.897 Y173.2 E4.95992
G1 X201.026 Y173.012 E5.43611
G1 X200.193 Y172.797 E5.89586
G1 X199.415 Y172.566 E6.32957
G1 X198.685 Y172.31 E6.74298
G1 X198.024 Y172.046 E7.12335
G1 X196.7 Y171.407 E7.909
G1 X195.878 Y170.924 E8.4185
G1 X195.108 Y170.414 E8.91207
G1 X194.404 Y169.868 E9.38818
G1 X193.765 Y169.299 E9.84543
G1 X193.189 Y168.706 E10.28722
G1 X192.662 Y168.067 E10.72986
G1 X191.956 Y167.046 E11.39323
G1 X191.503 Y166.228 E11.89293
G1 X191.123 Y165.407 E12.3764
G1 X190.813 Y164.597 E12.83989
G1 X190.582 Y163.776 E13.29567
G1 X190.409 Y162.926 E13.75923
G1 X190.306 Y162.087 E14.21096
G1 X190.271 Y161.205 E14.68268
G1 X190.288 Y160.546 E15.03497
G1 X190.367 Y159.639 E15.52151
G1 X190.514 Y158.787 E15.98355
G1 X190.72 Y157.969 E16.43434
G1 X190.982 Y157.192 E16.87254
G1 X191.311 Y156.451 E17.30581
G1 X191.701 Y155.73 E17.74387
G1 X192.156 Y155.039 E18.18601
G1 X192.682 Y154.375 E18.6387
G1 X193.266 Y153.73 E19.10369
G1 X194.063 Y153.006 E19.67911
G1 X194.575 Y152.589 E20.03199
G1 X195.151 Y152.175 E20.41107
G1 X195.775 Y151.759 E20.81185
G1 X197.2 Y150.958 E21.68544
G1 X198.822 Y150.185 E22.64565
G1 X200.696 Y149.443 E23.72277
G1 X201.676 Y149.1 E24.27764
G1 X203.885 Y148.414 E25.51376
G1 X205.038 Y148.091 E26.15365
G1 X206.253 Y147.785 E26.82323
G1 X209.26 Y147.082 E28.47352
G1 X210.562 Y146.744 E29.19238
G1 X211.851 Y146.346 E29.91332
G1 X212.889 Y145.997 E30.49855
G1 X214.013 Y145.543 E31.14637
G1 X214.913 Y145.098 E31.68292
G1 X215.739 Y144.594 E32.20002
G1 X216.353 Y144.116 E32.61586
G1 X216.803 Y143.649 E32.96244
G1 X217.394 Y142.978 E33.44028
G1 X217.859 Y142.254 E33.90012
G1 X218.149 Y141.719 E34.22533
G1 X218.495 Y140.786 E34.75711
G1 X218.604 Y140.328 E35.0087
G1 X218.719 Y139.29 E35.56681
G1 X218.716 Y138.838 E35.80837
G1 X218.613 Y138.015 E36.25162
G1 X218.492 Y137.419 E36.57662
G1 X218.156 Y136.486 E37.10657
G1 X217.958 Y136.087 E37.34461
G1 X217.603 Y135.541 E37.69265
G1 X217.167 Y134.934 E38.09204
G1 X216.495 Y134.235 E38.61022
G1 X216.092 Y133.872 E38.90007
G1 X215.089 Y133.182 E39.55067
G1 X214.698 Y132.973 E39.7876
G1 X213.542 Y132.496 E40.4559
G1 X212.623 Y132.235 E40.96644
G1 X211.093 Y131.993 E41.79425
G1 X209.679 Y131.943 E42.55037
G1 X208.891 Y131.971 E42.97175
G1 X207.796 Y132.084 E43.56003
G1 X206.481 Y132.365 E44.27864
G1 X205.222 Y132.811 E44.99243
G1 X204.016 Y133.426 E45.71589
G1 X203.037 Y134.094 E46.34926
G1 X202.544 Y134.532 E46.70168
G1 X201.99 Y135.076 E47.11661
G1 X201.332 Y135.834 E47.65302
G1 X200.91 Y136.437 E48.04634
G1 X200.647 Y136.898 E48.32997
G1 X200.358 Y137.427 E48.65211
G1 X199.897 Y138.52 E49.28605
G1 X199.577 Y139.531 E49.85275
G1 X199.383 Y140.319 E50.28644
G1 X188.675 Y139.648 E56.02009
G1 X188.756 Y139.201 E56.26286
G1 X188.971 Y138.258 E56.77974
G1 X189.217 Y137.374 E57.27011
G1 X189.522 Y136.497 E57.76632
G1 X189.851 Y135.647 E58.2534
G1 X190.227 Y134.849 E58.72482
G1 X190.652 Y134.056 E59.20563
G1 X191.108 Y133.289 E59.68249
G1 X191.603 Y132.561 E60.15295
G1 X192.148 Y131.852 E60.63085
G1 X192.732 Y131.167 E61.1119
G1 X193.496 Y130.367 E61.70306
G1 X193.953 Y129.959 E62.03045
G1 X194.477 Y129.555 E62.38404
G1 X195.036 Y129.168 E62.74738
G1 X195.646 Y128.811 E63.12509
G1 X196.311 Y128.46 E63.52694
G1 X197.016 Y128.139 E63.94091
G1 X197.781 Y127.838 E64.38024
G1 X198.593 Y127.562 E64.83856
G1 X199.469 Y127.307 E65.32613
G1 X200.383 Y127.072 E65.83046
G1 X201.351 Y126.872 E66.35869
G1 X202.375 Y126.689 E66.91459
G1 X203.444 Y126.535 E67.49177
G1 X204.57 Y126.409 E68.09727
G1 X205.741 Y126.311 E68.72525
G1 X206.958 Y126.243 E69.37664
G1 X209.579 Y126.183 E70.77769
G1 X211.618 Y126.232 E71.86766
G1 X212.713 Y126.3 E72.45396
G1 X213.757 Y126.396 E73.01423
G1 X215.76 Y126.666 E74.09433
G1 X216.681 Y126.844 E74.59563
G1 X217.589 Y127.055 E75.0938
G1 X218.451 Y127.279 E75.56976
G1 X219.255 Y127.535 E76.02068
G1 X220.039 Y127.825 E76.4674
G1 X220.777 Y128.125 E76.89313
G1 X222.053 Y128.74 E77.6501
G1 X222.855 Y129.203 E78.14499
G1 X223.628 Y129.713 E78.63989
G1 X224.354 Y130.25 E79.12247
G1 X225.028 Y130.827 E79.59662
G1 X225.666 Y131.447 E80.07204
G1 X226.263 Y132.097 E80.54368
G1 X226.811 Y132.787 E81.01457
G1 X227.447 Y133.702 E81.61007
G1 X227.845 Y134.358 E82.02012
G1 X228.267 Y135.174 E82.51106
G1 X228.636 Y136.003 E82.99599
G1 X228.949 Y136.844 E83.47554
G1 X229.207 Y137.696 E83.95127
G1 X229.364 Y138.391 E84.33204
G1 X229.561 Y139.629 E85.00196
G1 X229.626 Y140.521 E85.47991
G1 X229.65 Y141.73 E86.12613
G1 X229.589 Y142.644 E86.61566
G1 X229.465 Y143.545 E87.1017
G1 X229.289 Y144.422 E87.57972
G1 X229.046 Y145.254 E88.04292
G1 X228.751 Y146.063 E88.5031
G1 X228.388 Y146.849 E88.96578
G1 X227.862 Y147.796 E89.54469
G1 X227.42 Y148.429 E89.95728
G1 X226.911 Y149.059 E90.39011
G1 X226.34 Y149.665 E90.83507
G1 X225.698 Y150.254 E91.30067
G1 X224.984 Y150.825 E91.78925
G1 X224.192 Y151.38 E92.30608
G1 X223.343 Y151.91 E92.84094
G1 X222.126 Y152.565 E93.57953
G1 X221.56 Y152.826 E93.91261
G1 X220.16 Y153.396 E94.72041
G1 X218.531 Y153.981 E95.64539
G1 X215.662 Y154.862 E97.24926
G1 X213.468 Y155.453 E98.46354
G1 X211.038 Y156.048 E99.80051
G1 X209.747 Y156.348 E100.50881
G1 X207.855 Y156.754 E101.54292
G1 X206.397 Y157.108 E102.34472
G1 X205.218 Y157.455 E103.00151
G1 X203.988 Y157.918 E103.70386
G1 X203.249 Y158.282 E104.14409
G1 X202.749 Y158.61 E104.46366
G1 X202.251 Y158.989 E104.7981
G1 X201.848 Y159.371 E105.09484
G1 X201.558 Y159.719 E105.33692
G1 X200.882 Y160.78 E106.00923
G1 X200.712 Y161.274 E106.28842
G1 X200.598 Y161.851 E106.60273
G1 X200.486 Y162.609 E107.01221
G1 X200.519 Y163.152 E107.30293
G1 X200.708 Y164.149 E107.84522
G1 X200.886 Y164.668 E108.13844
G1 X201.35 Y165.574 E108.68242
G1 X201.649 Y166.003 E108.96187
G1 X202.395 Y166.812 E109.54996
G1 X202.792 Y167.141 E109.8255
G1 X203.684 Y167.697 E110.38721
G1 X204.178 Y167.92 E110.67686
G1 X205.018 Y168.212 E111.15211
G1 X205.565 Y168.332 E111.45138
G1 X206.598 Y168.506 E112.0112
G1 X207.876 Y168.581 E112.69535
G1 X208.462 Y168.567 E113.0086
G1 X209.616 Y168.484 E113.6269
G1 X210.125 Y168.4 E113.90259
G1 X211.137 Y168.189 E114.45504
G1 X211.864 Y167.954 E114.86335
G1 X212.338 Y167.784 E115.13246
G1 X213.211 Y167.368 E115.64926
G1 X213.618 Y167.117 E115.9048
G1 X214.462 Y166.511 E116.46006
G1 X214.834 Y166.162 E116.73265
G1 X215.68 Y165.167 E117.43061
G1 X216.064 Y164.56 E117.81446
G1 X216.321 Y164.123 E118.08539
G1 X216.756 Y163.18 E118.64037
G1 X217.077 Y162.226 E119.17828
G1 X227.668 Y162.851 E124.84802
G1 X227.455 Y163.722 E125.3272
G1 X227.173 Y164.629 E125.83479
G1 X226.846 Y165.503 E126.33348
G1 X226.487 Y166.319 E126.80989
G1 X226.088 Y167.081 E127.26956
G1 X225.66 Y167.789 E127.71168
G1 X225.186 Y168.453 E128.14766
G1 X224.68 Y169.061 E128.57038
G1 X224.123 Y169.635 E128.99781
G1 X223.543 Y170.165 E129.41768
G1 X222.898 Y170.653 E129.84991
G1 X222.468 Y170.947 E130.12828
G1 X221.834 Y171.326 E130.52302
G1 X221.161 Y171.68 E130.9294
G1 X220.44 Y172.005 E131.35204
G1 X219.659 Y172.317 E131.80148
G1 X218.851 Y172.593 E132.25778
G1 X217.994 Y172.844 E132.73501
G1 X217.08 Y173.07 E133.23817
G1 X216.15 Y173.266 E133.74609
G1 X214.083 Y173.576 E134.86306
G1 X213.009 Y173.681 E135.43975
G1 X211.869 Y173.759 E136.0504
G1 X210.701 Y173.807 E136.67511
G1 X208.486 Y173.807 E137.85882
G1 X208.336 Y175.092 F7800
;TYPE:External perimeter
G1 F1800
G1 X207.019 Y175.052 E138.56296
G1 X204.727 Y174.891 E139.79084
G1 X203.656 Y174.771 E140.36677
G1 X202.625 Y174.631 E140.9228
G1 X201.652 Y174.462 E141.45056
G1 X200.73 Y174.264 E141.95452
G1 X199.848 Y174.036 E142.44136
G1 X199.019 Y173.789 E142.90363
G1 X198.234 Y173.514 E143.34814
G1 X197.506 Y173.223 E143.76712
G1 X196.094 Y172.542 E144.60488
G1 X195.197 Y172.015 E145.16085
G1 X194.358 Y171.459 E145.69873
G1 X193.582 Y170.858 E146.22326
G1 X192.875 Y170.228 E146.72933
G1 X192.23 Y169.564 E147.22403
G1 X191.642 Y168.851 E147.71792
G1 X191.19 Y168.218 E148.13359
G1 X190.852 Y167.706 E148.46145
G1 X190.356 Y166.81 E149.00875
G1 X189.938 Y165.907 E149.54051
G1 X189.592 Y165.001 E150.05879
G1 X189.332 Y164.079 E150.57073
G1 X189.139 Y163.133 E151.08669
G1 X189.024 Y162.191 E151.59384
G1 X188.985 Y161.213 E152.1169
G1 X189.004 Y160.473 E152.51249
G1 X189.092 Y159.474 E153.04843
G1 X189.255 Y158.521 E153.56512
G1 X189.486 Y157.606 E154.06944
G1 X189.783 Y156.725 E154.56629
G1 X190.156 Y155.884 E155.05795
G1 X190.597 Y155.069 E155.55317
G1 X191.113 Y154.285 E156.05475
G1 X191.701 Y153.543 E156.56069
G1 X192.356 Y152.821 E157.08165
G1 X193.224 Y152.031 E157.70887
G1 X193.794 Y151.567 E158.10165
G1 X194.419 Y151.118 E158.51291
G1 X195.095 Y150.668 E158.94689
G1 X196.608 Y149.817 E159.87457
G1 X197.434 Y149.409 E160.3669
G1 X198.317 Y149.002 E160.8865
G1 X200.247 Y148.238 E161.99578
G1 X201.273 Y147.88 E162.5765
G1 X203.521 Y147.181 E163.83458
G1 X204.708 Y146.849 E164.49327
G1 X205.95 Y146.536 E165.17776
G1 X208.936 Y145.838 E166.81652
G1 X210.239 Y145.5 E167.5359
G1 X211.441 Y145.128 E168.20832
G1 X212.478 Y144.778 E168.79321
G1 X213.451 Y144.387 E169.3536
G1 X214.26 Y143.991 E169.83495
G1 X214.957 Y143.574 E170.269
G1 X215.49 Y143.163 E170.62869
G1 X216.253 Y142.359 E171.22103
G1 X216.555 Y141.906 E171.51198
G1 X216.944 Y141.272 E171.90949
G1 X217.29 Y140.339 E172.44127
G1 X217.361 Y139.879 E172.69001
G1 X217.441 Y138.998 E173.16276
G1 X217.315 Y137.992 E173.70457
G1 X217.231 Y137.713 E173.86028
G1 X216.88 Y136.788 E174.389
G1 X216.24 Y135.825 E175.00692
G1 X215.363 Y134.931 E175.67618
G1 X214.788 Y134.535 E176.04929
G1 X214.179 Y134.149 E176.43461
G1 X213.277 Y133.757 E176.9602
G1 X212.292 Y133.477 E177.50744
G1 X211.037 Y133.277 E178.18658
G1 X209.716 Y133.228 E178.89302
G1 X209.023 Y133.249 E179.26353
G1 X207.929 Y133.363 E179.85134
G1 X206.831 Y133.602 E180.45186
G1 X206.341 Y133.768 E180.72834
G1 X205.784 Y133.967 E181.04443
G1 X204.723 Y134.5 E181.67896
G1 X203.89 Y135.055 E182.21388
G1 X203.397 Y135.493 E182.5663
G1 X202.95 Y135.931 E182.90074
G1 X202.375 Y136.585 E183.36612
G1 X202.026 Y137.075 E183.68761
G1 X201.538 Y137.937 E184.21697
G1 X201.122 Y138.908 E184.7815
G1 X200.803 Y139.919 E185.34804
G1 X200.38 Y141.67 E186.3107
G1 X187.15 Y140.841 E193.39476
G1 X187.497 Y138.942 E194.4264
G1 X187.724 Y137.943 E194.97388
G1 X187.989 Y136.991 E195.50198
G1 X188.315 Y136.054 E196.03216
G1 X188.669 Y135.14 E196.55596
G1 X189.079 Y134.271 E197.06945
G1 X189.532 Y133.424 E197.58276
G1 X190.023 Y132.598 E198.09628
G1 X190.561 Y131.807 E198.6075
G1 X191.149 Y131.042 E199.12313
G1 X191.778 Y130.305 E199.64093
G1 X192.602 Y129.442 E200.27859
G1 X193.132 Y128.969 E200.65822
G1 X193.719 Y128.516 E201.05447
G1 X194.345 Y128.083 E201.46124
G1 X195.021 Y127.687 E201.87992
G1 X195.744 Y127.306 E202.31666
G1 X196.514 Y126.955 E202.76889
G1 X197.339 Y126.631 E203.24256
G1 X198.206 Y126.335 E203.73215
G1 X199.13 Y126.067 E204.24629
G1 X200.093 Y125.819 E204.77771
G1 X201.108 Y125.61 E205.33151
G1 X202.17 Y125.42 E205.90806
G1 X203.281 Y125.26 E206.50791
G1 X204.445 Y125.129 E207.13389
G1 X205.651 Y125.029 E207.7806
G1 X206.907 Y124.958 E208.45289
G1 X209.572 Y124.897 E209.87746
G1 X210.464 Y124.907 E210.35418
G1 X211.679 Y124.948 E211.00385
G1 X212.812 Y125.018 E211.61049
G1 X213.894 Y125.118 E212.19118
G1 X214.959 Y125.249 E212.76461
G1 X215.976 Y125.398 E213.3139
G1 X216.948 Y125.587 E213.84307
G1 X217.896 Y125.806 E214.36303
G1 X218.808 Y126.044 E214.86673
G1 X219.673 Y126.319 E215.35179
G1 X220.504 Y126.626 E215.82522
G1 X221.299 Y126.95 E216.284
G1 X222.654 Y127.603 E217.08782
G1 X223.531 Y128.109 E217.62891
G1 X224.365 Y128.659 E218.1628
G1 X225.155 Y129.244 E218.68813
G1 X225.894 Y129.876 E219.20778
G1 X226.588 Y130.551 E219.72515
G1 X227.241 Y131.262 E220.24105
G1 X227.843 Y132.02 E220.75834
G1 X228.526 Y133.001 E221.39714
G1 X228.967 Y133.729 E221.852
G1 X229.426 Y134.617 E222.3862
G1 X229.827 Y135.517 E222.91275
G1 X230.168 Y136.434 E223.43559
G1 X230.45 Y137.368 E223.95698
G1 X230.664 Y138.311 E224.47374
G1 X230.841 Y139.516 E225.12461
G1 X230.912 Y140.496 E225.6497
G1 X230.937 Y141.76 E226.32532
G1 X230.869 Y142.775 E226.86896
G1 X230.732 Y143.759 E227.39989
G1 X230.539 Y144.728 E227.9279
G1 X230.268 Y145.655 E228.44403
G1 X229.94 Y146.554 E228.95544
G1 X229.535 Y147.431 E229.47168
G1 X228.954 Y148.477 E230.11111
G1 X228.449 Y149.202 E230.58328
G1 X227.88 Y149.905 E231.06661
G1 X227.243 Y150.58 E231.5626
G1 X226.535 Y151.23 E232.07623
G1 X225.756 Y151.854 E232.60962
G1 X224.902 Y152.453 E233.16707
G1 X223.988 Y153.022 E233.74243
G1 X222.7 Y153.716 E234.52431
G1 X222.072 Y154.006 E234.89397
G1 X220.62 Y154.597 E235.73174
G1 X218.941 Y155.2 E236.68512
G1 X217.039 Y155.797 E237.75046
G1 X216.011 Y156.099 E238.32305
G1 X213.788 Y156.698 E239.55341
G1 X211.336 Y157.298 E240.90243
G1 X210.027 Y157.603 E241.62071
G1 X208.156 Y158.004 E242.64329
G1 X206.765 Y158.339 E243.4079
G1 X205.6 Y158.683 E244.05706
G1 X205.113 Y158.861 E244.33416
G1 X204.557 Y159.071 E244.65178
G1 X203.818 Y159.435 E245.09201
G1 X203.5 Y159.653 E245.29805
G1 X203.031 Y160.021 E245.61663
G1 X202.636 Y160.42 E245.91667
G1 X202.081 Y161.272 E246.46007
G1 X201.973 Y161.523 E246.6061
G1 X201.783 Y162.484 E247.12961
G1 X201.782 Y162.913 E247.35887
G1 X201.896 Y163.511 E247.6842
G1 X202.03 Y164.083 E247.99816
G1 X202.594 Y165.132 E248.63464
G1 X202.984 Y165.555 E248.94211
G1 X203.472 Y166.05 E249.31358
G1 X204.492 Y166.668 E249.95092
G1 X205.422 Y166.992 E250.47722
G1 X206.674 Y167.223 E251.15759
G1 X207.449 Y167.269 E251.57248
G1 X208.371 Y167.285 E252.06528
G1 X209.525 Y167.202 E252.68358
G1 X210.742 Y166.966 E253.34607
G1 X211.834 Y166.6 E253.96155
G1 X212.747 Y166.156 E254.5041
G1 X213.519 Y165.624 E255.00513
G1 X213.92 Y165.257 E255.29563
G1 X214.533 Y164.561 E255.79127
G1 X215.154 Y163.585 E256.40948
G1 X215.618 Y162.568 E257.00687
G1 X216.157 Y160.884 E257.95178
G1 X229.211 Y161.654 E264.94005
G1 X228.95 Y163.022 E265.6843
G1 X228.694 Y164.065 E266.25823
G1 X228.39 Y165.046 E266.80708
G1 X228.037 Y165.988 E267.34468
G1 X227.646 Y166.876 E267.8632
G1 X227.209 Y167.712 E268.36732
G1 X226.734 Y168.496 E268.85719
G1 X226.204 Y169.238 E269.34449
G1 X225.637 Y169.921 E269.81887
G1 X225.019 Y170.559 E270.29355
G1 X224.366 Y171.154 E270.76566
G1 X223.65 Y171.695 E271.24524
G1 X223.162 Y172.03 E271.56157
G1 X222.464 Y172.447 E271.99608
G1 X221.725 Y172.836 E272.44238
G1 X220.942 Y173.188 E272.90116
G1 X220.106 Y173.523 E273.38246
G1 X219.24 Y173.818 E273.87137
G1 X218.33 Y174.085 E274.37818
G1 X217.366 Y174.324 E274.90894
G1 X216.378 Y174.531 E275.4484
G1 X214.241 Y174.852 E276.60324
G1 X213.115 Y174.962 E277.20785
G1 X211.939 Y175.042 E277.83776
G1 X210.728 Y175.092 E278.48548
G1 X208.486 Y175.092 E279.68362
G1 X207.85 Y174.219 F7800
G1 E278.18362 F2700
G92 E0
G1 Z1.5 F7800
G1 X221.973 Y129.139
G1 Z1
G1 E1.5 F2700
;TYPE:Solid infill
;WIDTH:1.53028
G1 F1800
G1 X225.211 Y132.377 E4.00482
G1 X225.529 Y132.724 E4.26228
G1 X226.037 Y133.363 E4.70881
G1 X226.639 Y134.228 E5.28527
